; HEADER_BLOCK_START
; generated by Creality_Print V7.1.1.4472 on 2026-05-16 at 10:34:18
; total layer number: 3
; filament_density: 1.24
; filament_diameter: 1.75
; max_z_height: 0.60
; creality_uuid: 7a5a4631-af6b-43f6-aeb1-9c8cd107bd19
; HEADER_BLOCK_END

; MINX = 4.67
; MINY = 5.00
; MINZ = 0.00
; MAXX = 62.87
; MAXY = 55.40
; MAXZ = 0.50

; multicolor_method = 0 
; THUMBNAIL_BLOCK_START

;
; THUMBNAIL_BLOCK_END

; THUMBNAIL_BLOCK_START

;
; THUMBNAIL_BLOCK_END

; external perimeters extrusion width = 0.42mm
; perimeters extrusion width = 0.45mm
; infill extrusion width = 0.45mm
; solid infill extrusion width = 0.42mm
; top infill extrusion width = 0.42mm
; first layer extrusion width = 0.50mm

; EXECUTABLE_BLOCK_START
EXCLUDE_OBJECT_DEFINE NAME=Part1.STL_id_0_copy_0 CENTER=33.768,30.2042 POLYGON=[[4.66953,30.2042],[19.2188,5.00417],[48.3172,5.00417],[62.8664,30.2042],[48.3172,55.4042],[19.2188,55.4042],[4.66953,30.2042]]
M73 P0 R0
; max_print_temp = 80,237
;TYPE:Custom
M220 S100 ;Reset Feedrate 
M221 S100 ;Reset Flowrate 
 
M140 S80 ;Set final bed temp  
G28 ;Home 
 
G92 E0 ;Reset Extruder 
G1 Z2.0 F3000 ;Move Z Axis up 
M104 S237 ;Set final nozzle temp  
G1 X-2.0 Y20 Z0.28 F5000.0 ;Move to start position 
M190 S80 ;Wait for bed temp to stabilize  
M109 S237 ;Wait for nozzle temp to stabilize  
G1 X-2.0 Y145.0 Z0.28 F1500.0 E15 ;Draw the first line 
M73 P1 R0
G1 X-1.7 Y145.0 Z0.28 F5000.0 ;Move to side a little 
M73 P16 R0
G1 X-1.7 Y20 Z0.28 F1500.0 E30 ;Draw the second line 
G92 E0 ;Reset Extruder 
G1 E-1.0000 F1800 ;Retract a bit 
M73 P31 R0
G1 Z2.0 F3000 ;Move Z Axis up 
G1 E0.0000 F1800
G90
G21
M83 ; use relative distances for extrusion
; filament start gcode
SET_PRESSURE_ADVANCE ADVANCE=0.044; Override pressure advance value
G1 E-.8 F1800
G1 Z.2 F27000
M106 S0
;LAYER_CHANGE
;:0.2
;HEIGHT:0.2
;BEFORE_LAYER_CHANGE
;0.2
G92 E0

;_SET_FAN_SPEED_CHANGING_LAYER
SET_VELOCITY_LIMIT ACCEL=500 ACCEL_TO_DECEL=125
SET_VELOCITY_LIMIT SQUARE_CORNER_VELOCITY=9
; OBJECT_ID: 71
; printing object Part1.STL id:0 copy 0
EXCLUDE_OBJECT_START NAME=Part1.STL_id_0_copy_0
G1 X19.322 Y5.104 Z.4 F27000
G1 Z.2
M73 P33 R0
G1 E.8 F1800
;TYPE:Outer wall
;WIDTH:0.38292
G1 F2578
G1 X48.214 Y5.104 E.77598
G1 X48.282 Y5.143 E.00211
M73 P36 R0
G1 X62.728 Y30.165 E.77598
G1 X62.733 Y30.235 E.00187
M73 P38 R0
G1 X48.282 Y55.265 E.77625
G1 X48.214 Y55.304 E.00211
M73 P40 R0
G1 X19.322 Y55.304 E.77598
G1 X19.254 Y55.265 E.00211
M73 P42 R0
G1 X4.808 Y30.243 E.77598
M73 P43 R0
G1 X4.808 Y30.165 E.00211
M73 P45 R0
G1 X19.254 Y5.143 E.77598
G1 X19.287 Y5.124 E.00104
M73 P47 R0
G1 X19.336 Y5.025
G1 E-.56 F1800
;WIPE_START
G1 F9000
G1 X20.287 Y5.123 E-.228
;WIPE_END
G1 E-.012 F1800
M73 P48 R0
G1 X22.088 Y8.488 Z.4 F27000
G1 X33.787 Y30.347 Z.4
G1 Z.2
M73 P50 R0
G1 E.8 F1800
G1 F2578
G2 X31.886 Y33.968 I8.332 J6.684 E.11052
G2 X32.635 Y40.054 I7.851 J2.123 E.16888
G2 X36.095 Y43.826 I9.844 J-5.558 E.13866
M73 P51 R0
G2 X41.224 Y45.857 I6.866 J-9.846 E.14949
G2 X44.956 Y45.54 I1.158 J-8.51 E.10141
G2 X48.618 Y42.539 I-2.222 J-6.446 E.12988
G2 X49.536 Y40.436 I-9.237 J-5.283 E.06175
; stop printing object Part1.STL id:0 copy 0
G1 E-.56 F1800
;WIPE_START
G1 F9000
G1 X49.199 Y41.377 E-.228
;WIPE_END
G1 E-.012 F1800
EXCLUDE_OBJECT_END NAME=Part1.STL_id_0_copy_0
;TIME_ELAPSED:17.608963

M106 S255
;LAYER_CHANGE
;:0.4
;HEIGHT:0.2
;BEFORE_LAYER_CHANGE
;0.4
G92 E0

;_SET_FAN_SPEED_CHANGING_LAYER
SET_VELOCITY_LIMIT ACCEL=5000 ACCEL_TO_DECEL=1250
SET_VELOCITY_LIMIT SQUARE_CORNER_VELOCITY=12
M140 S80 ; set bed temperature
; OBJECT_ID: 71
; printing object Part1.STL id:0 copy 0
EXCLUDE_OBJECT_START NAME=Part1.STL_id_0_copy_0
G1 X19.322 Y5.104 Z.4 F27000
G1 E.8 F1800
SET_VELOCITY_LIMIT ACCEL=2000 ACCEL_TO_DECEL=500 SQUARE_CORNER_VELOCITY=9
G1 F2629
M73 P52 R0
G1 X19.988 Y5.104 E.01789
G1 X47.548 Y5.104 E.74019
G1 X48.214 Y5.104 E.01789
G1 X48.282 Y5.143 E.00211
G1 X48.615 Y5.72 E.01789
G1 X62.395 Y29.588 E.7402
G1 X62.728 Y30.165 E.01789
G1 X62.733 Y30.235 E.00188
G1 X62.401 Y30.811 E.01786
G1 X48.615 Y54.688 E.74049
G1 X48.282 Y55.265 E.01789
G1 X48.214 Y55.304 E.00211
M73 P53 R0
G1 X47.548 Y55.304 E.01789
G1 X19.988 Y55.304 E.74019
G1 X19.322 Y55.304 E.01789
G1 X19.254 Y55.265 E.00211
G1 X18.921 Y54.688 E.01789
G1 X5.141 Y30.82 E.7402
G1 X4.808 Y30.243 E.01789
G1 X4.808 Y30.165 E.00209
G1 X5.141 Y29.588 E.01789
M73 P54 R0
G1 X18.921 Y5.72 E.7402
G1 X19.254 Y5.143 E.01789
G1 X19.287 Y5.124 E.00102
G1 X19.336 Y5.025
M73 P56 R0
G1 E-.56 F1800
;WIPE_START
G1 F11640
G1 X20.287 Y5.123 E-.228
;WIPE_END
G1 E-.012 F1800
SET_VELOCITY_LIMIT ACCEL=5000 ACCEL_TO_DECEL=1250 SQUARE_CORNER_VELOCITY=12
M73 P58 R0
G1 X22.722 Y8.062 Z.6 F27000
G1 X49.536 Y40.436 Z.6
G1 Z.4
G1 E.8 F1800
SET_VELOCITY_LIMIT ACCEL=2000 ACCEL_TO_DECEL=500 SQUARE_CORNER_VELOCITY=9
M73 P60 R0
G1 F2629
G1 X49.195 Y41.386 E.02711
G1 X48.865 Y42.097 E.02105
G1 X48.618 Y42.539 E.0136
M73 P62 R0
G1 X48.21 Y43.151 E.01975
G1 X47.76 Y43.701 E.01909
G1 X47.322 Y44.134 E.01654
G1 X46.798 Y44.579 E.01846
M73 P64 R0
G1 X46.227 Y44.959 E.01842
G1 X45.613 Y45.28 E.01861
G1 X44.956 Y45.54 E.01898
G1 X44.259 Y45.737 E.01945
M73 P66 R0
G1 X43.635 Y45.855 E.01706
M73 P67 R0
G1 X42.863 Y45.928 E.02083
G1 X42.057 Y45.929 E.02165
G1 X41.224 Y45.857 E.02246
G1 X40.37 Y45.709 E.02328
G1 X39.507 Y45.484 E.02395
G1 X38.644 Y45.186 E.02452
G1 X37.796 Y44.817 E.02484
G1 X36.973 Y44.383 E.02499
M73 P68 R0
G1 X36.095 Y43.826 E.02793
G1 X35.364 Y43.278 E.02454
G1 X34.689 Y42.688 E.02408
G1 X34.075 Y42.064 E.02351
G1 X33.527 Y41.414 E.02283
G1 X33.046 Y40.742 E.0222
G1 X32.635 Y40.054 E.02152
G1 X32.292 Y39.354 E.02094
G1 X32.108 Y38.885 E.01353
G1 X31.898 Y38.264 E.01761
G1 X31.731 Y37.557 E.01951
G1 X31.629 Y36.846 E.01929
G1 X31.593 Y36.132 E.0192
M73 P69 R0
G1 X31.623 Y35.415 E.01927
G1 X31.72 Y34.693 E.01957
G1 X31.886 Y33.968 E.01998
G1 X32.122 Y33.238 E.02061
G1 X32.433 Y32.502 E.02146
G1 X32.821 Y31.762 E.02244
G1 X33.291 Y31.016 E.02368
G1 X33.787 Y30.347 E.02237
; stop printing object Part1.STL id:0 copy 0
G1 E-.56 F1800
;WIPE_START
G1 F14040
G1 X33.291 Y31.016 E-.18988
G1 X33.202 Y31.157 E-.03812
;WIPE_END
G1 E-.012 F1800
EXCLUDE_OBJECT_END NAME=Part1.STL_id_0_copy_0
;TIME_ELAPSED:23.208624

;LAYER_CHANGE
;:0.6
;HEIGHT:0.2
;BEFORE_LAYER_CHANGE
;0.6
G92 E0

;_SET_FAN_SPEED_CHANGING_LAYER
; OBJECT_ID: 71
; printing object Part1.STL id:0 copy 0
EXCLUDE_OBJECT_START NAME=Part1.STL_id_0_copy_0
SET_VELOCITY_LIMIT ACCEL=5000 ACCEL_TO_DECEL=1250 SQUARE_CORNER_VELOCITY=12
G1 X19.322 Y5.104 Z.6 F27000
G1 E.8 F1800
SET_VELOCITY_LIMIT ACCEL=2000 ACCEL_TO_DECEL=500 SQUARE_CORNER_VELOCITY=9
G1 F2608
G1 X19.988 Y5.104 E.01789
M73 P70 R0
G1 X47.548 Y5.104 E.74019
G1 X48.214 Y5.104 E.01789
G1 X48.282 Y5.143 E.00211
G1 X48.615 Y5.72 E.01789
G1 X62.395 Y29.588 E.7402
G1 X62.728 Y30.165 E.01789
G1 X62.733 Y30.235 E.00188
G1 X62.401 Y30.811 E.01786
G1 X48.615 Y54.688 E.74049
G1 X48.282 Y55.265 E.01789
G1 X48.214 Y55.304 E.00211
G1 X47.548 Y55.304 E.01789
G1 X19.988 Y55.304 E.74019
G1 X19.322 Y55.304 E.01789
G1 X19.254 Y55.265 E.00211
G1 X18.921 Y54.688 E.01789
G1 X5.141 Y30.82 E.7402
G1 X4.808 Y30.243 E.01789
G1 X4.808 Y30.165 E.00209
G1 X5.141 Y29.588 E.01789
M73 P71 R0
G1 X18.921 Y5.72 E.7402
G1 X19.254 Y5.143 E.01789
G1 X19.287 Y5.124 E.00102
G1 X19.336 Y5.025
M73 P73 R0
G1 E-.56 F1800
;WIPE_START
G1 F11640
G1 X20.287 Y5.123 E-.228
;WIPE_END
G1 E-.012 F1800
SET_VELOCITY_LIMIT ACCEL=5000 ACCEL_TO_DECEL=1250 SQUARE_CORNER_VELOCITY=12
M73 P75 R0
G1 X22.722 Y8.062 Z.8 F27000
G1 X49.536 Y40.436 Z.8
G1 Z.6
G1 E.8 F1800
SET_VELOCITY_LIMIT ACCEL=2000 ACCEL_TO_DECEL=500 SQUARE_CORNER_VELOCITY=9
M73 P77 R0
G1 F2608
G1 X49.195 Y41.386 E.02711
G1 X48.865 Y42.097 E.02105
G1 X48.618 Y42.539 E.0136
M73 P79 R0
G1 X48.21 Y43.151 E.01975
G1 X47.76 Y43.701 E.01909
G1 X47.322 Y44.134 E.01654
G1 X46.798 Y44.579 E.01846
M73 P81 R0
G1 X46.227 Y44.959 E.01842
G1 X45.613 Y45.28 E.01861
G1 X44.956 Y45.54 E.01898
G1 X44.259 Y45.737 E.01945
M73 P83 R0
G1 X43.635 Y45.855 E.01706
G1 X42.863 Y45.928 E.02083
G1 X42.057 Y45.929 E.02165
M73 P84 R0
G1 X41.224 Y45.857 E.02246
G1 X40.37 Y45.709 E.02328
G1 X39.507 Y45.484 E.02395
G1 X38.644 Y45.186 E.02452
G1 X37.796 Y44.817 E.02484
G1 X36.973 Y44.383 E.02499
M73 P85 R0
G1 X36.095 Y43.826 E.02793
G1 X35.364 Y43.278 E.02454
G1 X34.689 Y42.688 E.02408
G1 X34.075 Y42.064 E.02351
G1 X33.527 Y41.414 E.02283
G1 X33.046 Y40.742 E.0222
G1 X32.635 Y40.054 E.02152
G1 X32.292 Y39.354 E.02094
G1 X32.108 Y38.885 E.01353
G1 X31.898 Y38.264 E.01761
G1 X31.731 Y37.557 E.01951
G1 X31.629 Y36.846 E.01929
G1 X31.593 Y36.132 E.0192
G1 X31.623 Y35.415 E.01927
G1 X31.72 Y34.693 E.01957
M73 P86 R0
G1 X31.886 Y33.968 E.01998
G1 X32.122 Y33.238 E.02061
G1 X32.433 Y32.502 E.02146
G1 X32.821 Y31.762 E.02244
G1 X33.291 Y31.016 E.02368
G1 X33.787 Y30.347 E.02237
; stop printing object Part1.STL id:0 copy 0
G1 E-.56 F1800
;WIPE_START
G1 F14040
G1 X33.291 Y31.016 E-.18988
G1 X33.202 Y31.157 E-.03812
;WIPE_END
G1 E-.012 F1800
EXCLUDE_OBJECT_END NAME=Part1.STL_id_0_copy_0
;TIME_ELAPSED:28.791592

M106 S0
;TYPE:Custom
; filament end gcode 
G91 ;Relative positionning 
G1 E-2 F2700 ;Retract a bit 
G1 E-2 Z0.2 F2400 ;Retract and raise Z 
G1 X3 Y3 F3000 ;Wipe out 
G1 Z5 ;Raise Z more 
G90 ;Absolute positionning 
 
G1 X2 Y218 F3000 ;Present print 
M106 S0 ;Turn-off fan 
M104 S0 ;Turn-off hotend 
M140 S0 ;Turn-off bed 
 
M84 X Y E ;Disable all steppers but Z
M73 P100 R0
;TIME_ELAPSED:32.951935

; EXECUTABLE_BLOCK_END

; filament used [mm] = 46.58
; filament used [cm3] = 0.11
; filament used [g] = 0.14
; filament cost = 0.00
; total filament cost = 0.00
; total layers count = 3
; estimated printing time (normal mode) = 32s

; CONFIG_BLOCK_START
; accel_to_decel_enable = 1
; accel_to_decel_factor = 25%
; acceleration_limit_mess = [[0.3,0.6,150,6000],[0.61,0.9,100,5500],[0.91,1.2,80,5000],[1.21,1.5,60,4500],[1.51,2.0,40,4000]]
; acceleration_limit_mess_enable = 0
; activate_air_filtration = 0
; activate_chamber_layer = 1
; activate_chamber_temp_control = 0
; adaptive_bed_mesh_margin = 0
; additional_cooling_fan_speed = 0
; ai_infill = 0
; align_infill_direction_to_model = 0
; alternate_extra_wall = 0
; arc_tolerance = 12
; auxiliary_fan = 0
; bbl_calib_mark_logo = 1
; bbl_use_printhost = 0
; bed_custom_model = 
; bed_custom_texture = 
; bed_exclude_area = 0x0
; bed_mesh_max = 99999,99999
; bed_mesh_min = -99999,-99999
; bed_mesh_probe_distance = 50,50
; before_layer_change_gcode = ;BEFORE_LAYER_CHANGE\n;[layer_z]\nG92 E0\n
; belt_Z_offset = 0
; best_object_pos = 0.5,0.5
; bottom_shell_layers = 4
; bottom_shell_thickness = 0
; bottom_solid_infill_flow_ratio = 1
; bottom_surface_pattern = monotonic
; bridge_acceleration = 50%
; bridge_angle = 0
; bridge_density = 100%
; bridge_flow = 0.95
; bridge_no_support = 0
; bridge_speed = 50
; brim_ears_detection_length = 1
; brim_ears_max_angle = 125
; brim_object_gap = 0.1
; brim_type = auto_brim
; brim_width = 0
; chamber_temperature = 35
; change_extrusion_role_gcode = 
; change_filament_gcode = PAUSE
; close_fan_the_first_x_layers = 1
; color_bed_exclude_area = 
; complete_print_exhaust_fan_speed = 80
; cool_cds_fan_start_at_height = 0
; cool_plate_temp = 50
; cool_plate_temp_initial_layer = 50
; cool_special_cds_fan_speed = 0
; cooling_perimeter_transition_distance = 0
; cooling_slowdown_logic = uniform_cooling
; cooling_tube_length = 0
; cooling_tube_retraction = 0
; counterbore_hole_bridging = none
; creality_flush_time = 86
; curr_bed_type = High Temp Plate
; customized_plate_temp = 35
; customized_plate_temp_initial_layer = 35
; default_acceleration = 5000
; default_filament_colour = #56DF3D
; default_filament_profile = "Hyper PLA @Creality Ender-3 V3 KE 0.4 nozzle"
; default_filament_type = PETG
; default_flush_multiplier = 1.3
; default_jerk = 12
; default_print_profile = 0.20mm Standard @Creality Ender-3 V3 KE 0.4 nozzle
; deretraction_speed = 30
; detect_narrow_internal_solid_infill = 1
; detect_overhang_wall = 1
; detect_thin_wall = 0
; disable_m73 = 0
; dont_filter_internal_bridges = disabled
; dont_slow_down_outer_wall = 0
; draft_shield = disabled
; during_print_exhaust_fan_speed = 60
; elefant_foot_compensation = 0.15
; elefant_foot_compensation_layers = 1
; embedding_wall_into_infill = 0
; emit_machine_limits_to_gcode = 1
; enable_arc_fitting = 1
; enable_filament_ramming = 0
; enable_long_retraction_when_cut = 2
; enable_overhang_bridge_fan = 1
; enable_overhang_speed = 1
; enable_pressure_advance = 1
; enable_prime_tower = 0
; enable_special_area_additional_cooling_fan = 0
; enable_support = 0
; enforce_support_layers = 0
; eng_plate_temp = 50
; eng_plate_temp_initial_layer = 50
; ensure_vertical_shell_thickness = ensure_all
; epoxy_resin_plate_temp = 50
; epoxy_resin_plate_temp_initial_layer = 50
; exclude_object = 1
; external_infill_margin = 0
; extra_loading_move = 0
; extra_perimeters_on_overhangs = 0
; extruder_clearance_height_to_lid = 34
; extruder_clearance_height_to_rod = 47
; extruder_clearance_radius = 90
; extruder_colour = #FCE94F
; extruder_offset = 0x0
; fan_cooling_layer_time = 100
; fan_kickstart = 0
; fan_max_speed = 100
; fan_min_speed = 100
; fan_speedup_overhangs = 1
; fan_speedup_time = 0
; filament_adhesiveness_category = 100
; filament_colour = #56DF3D
; filament_cooling_final_speed = 3.4
; filament_cooling_initial_speed = 2.2
; filament_cooling_moves = 4
; filament_cost = 30
; filament_density = 1.24
; filament_diameter = 1.75
; filament_end_gcode = "; filament end gcode \n"
; filament_flow_ratio = 0.95
; filament_ids = 01001
; filament_is_support = 0
; filament_load_time = 0
; filament_loading_speed = 28
; filament_loading_speed_start = 3
; filament_max_volumetric_speed = 23
; filament_minimal_purge_on_wipe_tower = 15
; filament_multitool_ramming = 0
; filament_multitool_ramming_flow = 10
; filament_multitool_ramming_volume = 10
; filament_notes = ""
; filament_ramming_parameters = "120 100 6.6 6.8 7.2 7.6 7.9 8.2 8.7 9.4 9.9 10.0| 0.05 6.6 0.45 6.8 0.95 7.8 1.45 8.3 1.95 9.7 2.45 10 2.95 7.6 3.45 7.6 3.95 7.6 4.45 7.6 4.95 7.6"
; filament_retract_lift_above = 0
; filament_retract_lift_below = 0
; filament_retract_lift_enforce = All Surfaces
; filament_settings_id = "Hyper PLA @Creality Ender-3 V3 KE 0.4 nozzle - Copy(1)"
; filament_shrink = 100%
; filament_shrinkage_compensation_z = 100%
; filament_soluble = 0
; filament_stamping_distance = 0
; filament_stamping_loading_speed = 0
; filament_start_gcode = "; filament start gcode\n"
; filament_toolchange_delay = 0
; filament_type = PETG
; filament_unload_time = 0
; filament_unloading_speed = 90
; filament_unloading_speed_start = 100
; filament_vendor = Creality
; filename_format = {input_filename_base}_{filament_type[initial_tool]}_{print_time}.gcode
; fill_multiline = 1
; filter_out_gap_fill = 0
; first_layer_print_sequence = 0
; flush_box_first_clean_length = 90
; flush_box_need_clean_length = 70
; flush_box_need_clean_length_max = 100
; flush_into_infill = 0
; flush_into_objects = 0
; flush_into_support = 1
; flush_multiplier = 1
; flush_volumes_changed = 0
; flush_volumes_matrix = 0
; flush_volumes_vector = 140,140
; full_fan_speed_layer = 0
; fuzzy_skin = none
; fuzzy_skin_first_layer = 0
; fuzzy_skin_mode = displacement
; fuzzy_skin_noise_type = classic
; fuzzy_skin_octaves = 4
; fuzzy_skin_persistence = 0.5
; fuzzy_skin_point_distance = 0.8
; fuzzy_skin_scale = 1
; fuzzy_skin_thickness = 0.3
; gap_fill_target = everywhere
; gap_infill_speed = 100
; gcode_add_line_number = 0
; gcode_comments = 0
; gcode_flavor = klipper
; gcode_label_objects = 1
; has_scarf_joint_seam = 0
; head_wrap_detect_zone = 
; high_current_on_filament_swap = 0
; hole_to_polyhole = 0
; hole_to_polyhole_threshold = 0.01
; hole_to_polyhole_twisted = 1
; host_type = octoprint
; hot_plate_temp = 80
; hot_plate_temp_initial_layer = 80
; idle_temperature = 0
; ignore_inner_color = 0
; independent_support_layer_height = 1
; infill_anchor = 400%
; infill_anchor_max = 20
; infill_combination = 0
; infill_combination_max_layer_height = 100%
