; HEADER_BLOCK_START
; generated by Creality_Print V7.1.1.4472 on 2026-05-17 at 11:04:50
; total layer number: 25
; filament_density: 1.24
; filament_diameter: 1.75
; max_z_height: 5.00
; creality_uuid: 490775ab-e59b-4b64-b1e9-e9a64fbbb8a9
; HEADER_BLOCK_END

; MINX = 2.18
; MINY = 3.94
; MINZ = 0.00
; MAXX = 119.57
; MAXY = 105.74
; MAXZ = 5.00

; multicolor_method = 0 
; THUMBNAIL_BLOCK_START

;
; THUMBNAIL_BLOCK_END

; THUMBNAIL_BLOCK_START

;
; THUMBNAIL_BLOCK_END

; external perimeters extrusion width = 0.42mm
; perimeters extrusion width = 0.45mm
; infill extrusion width = 0.45mm
; solid infill extrusion width = 0.42mm
; top infill extrusion width = 0.42mm
; first layer extrusion width = 0.50mm

; external perimeters extrusion width = 0.42mm
; perimeters extrusion width = 0.45mm
; infill extrusion width = 0.45mm
; solid infill extrusion width = 0.42mm
; top infill extrusion width = 0.42mm
; first layer extrusion width = 0.50mm

; external perimeters extrusion width = 0.42mm
; perimeters extrusion width = 0.45mm
; infill extrusion width = 0.45mm
; solid infill extrusion width = 0.42mm
; top infill extrusion width = 0.42mm
; first layer extrusion width = 0.50mm

; external perimeters extrusion width = 0.42mm
; perimeters extrusion width = 0.45mm
; infill extrusion width = 0.45mm
; solid infill extrusion width = 0.42mm
; top infill extrusion width = 0.42mm
; first layer extrusion width = 0.50mm

; EXECUTABLE_BLOCK_START
EXCLUDE_OBJECT_DEFINE NAME=Part1.STL_id_0_copy_0 CENTER=31.2779,29.1359 POLYGON=[[2.1794,29.1359],[16.7286,3.93595],[45.8271,3.93595],[60.3763,29.1359],[45.8271,54.3359],[16.7286,54.3359],[2.1794,29.1359]]
EXCLUDE_OBJECT_DEFINE NAME=Part1.STL_id_1_copy_0 CENTER=31.2779,80.5359 POLYGON=[[2.1794,80.5359],[16.7286,55.3359],[45.8271,55.3359],[60.3763,80.5359],[45.8271,105.736],[16.7286,105.736],[2.1794,80.5359]]
EXCLUDE_OBJECT_DEFINE NAME=Part1.STL_id_2_copy_0 CENTER=90.4748,29.1359 POLYGON=[[61.3763,29.1359],[75.9255,3.93595],[105.024,3.93595],[119.573,29.1359],[105.024,54.3359],[75.9255,54.3359],[61.3763,29.1359]]
EXCLUDE_OBJECT_DEFINE NAME=Part1.STL_id_3_copy_0 CENTER=90.4748,80.5359 POLYGON=[[61.3763,80.5359],[75.9255,55.3359],[105.024,55.3359],[119.573,80.5359],[105.024,105.736],[75.9255,105.736],[61.3763,80.5359]]
M73 P0 R5
; max_print_temp = 80,237
;TYPE:Custom
M220 S100 ;Reset Feedrate 
M221 S100 ;Reset Flowrate 
 
M140 S80 ;Set final bed temp  
G28 ;Home 
 
G92 E0 ;Reset Extruder 
G1 Z2.0 F3000 ;Move Z Axis up 
M104 S237 ;Set final nozzle temp  
G1 X-2.0 Y20 Z0.28 F5000.0 ;Move to start position 
M190 S80 ;Wait for bed temp to stabilize  
M109 S237 ;Wait for nozzle temp to stabilize  
G1 X-2.0 Y145.0 Z0.28 F1500.0 E15 ;Draw the first line 
G1 X-1.7 Y145.0 Z0.28 F5000.0 ;Move to side a little 
M73 P1 R5
G1 X-1.7 Y20 Z0.28 F1500.0 E30 ;Draw the second line 
G92 E0 ;Reset Extruder 
G1 E-1.0000 F1800 ;Retract a bit 
M73 P3 R5
G1 Z2.0 F3000 ;Move Z Axis up 
G1 E0.0000 F1800
G90
G21
M83 ; use relative distances for extrusion
; filament start gcode
SET_PRESSURE_ADVANCE ADVANCE=0.044; Override pressure advance value
G1 E-.8 F1800
G1 Z.2 F27000
M106 S0
;LAYER_CHANGE
;:0.2
;HEIGHT:0.2
;BEFORE_LAYER_CHANGE
;0.2
G92 E0

;_SET_FAN_SPEED_CHANGING_LAYER
SET_VELOCITY_LIMIT ACCEL=500 ACCEL_TO_DECEL=125
SET_VELOCITY_LIMIT SQUARE_CORNER_VELOCITY=9
; OBJECT_ID: 71
; printing object Part1.STL id:0 copy 0
EXCLUDE_OBJECT_START NAME=Part1.STL_id_0_copy_0
G1 X60.243 Y29.166 Z.4 F27000
G1 Z.2
G1 E.8 F1800
;TYPE:Outer wall
;WIDTH:0.38292
G1 F9000
G1 X45.792 Y54.197 E.77625
G1 X45.724 Y54.236 E.00211
G1 X16.832 Y54.236 E.77598
G1 X16.764 Y54.197 E.00211
G1 X2.318 Y29.175 E.77598
G1 X2.318 Y29.097 E.00211
G1 X16.764 Y4.075 E.77598
G1 X16.832 Y4.036 E.00211
M73 P4 R5
G1 X45.724 Y4.036 E.77598
G1 X45.792 Y4.075 E.00211
G1 X60.238 Y29.097 E.77598
G1 X60.24 Y29.126 E.0008
G1 X60.305 Y29.218
G1 E-.56 F1800
;WIPE_START
G1 F9000
G1 X59.741 Y29.993 E-.228
;WIPE_END
G1 E-.012 F1800
G1 X55.926 Y29.897 Z.4 F27000
G1 X31.296 Y29.279 Z.4
G1 Z.2
G1 E.8 F1800
G1 F9000
G2 X29.387 Y32.93 I8.317 J6.673 E.11136
G2 X29.456 Y37.338 I7.608 J2.086 E.11999
G2 X31.455 Y40.851 I9.368 J-3.006 E.10936
G2 X38.402 Y44.737 I9.13 J-8.169 E.21774
G2 X42.202 Y44.554 I1.481 J-8.744 E.10297
G2 X46.042 Y41.61 I-1.965 J-6.54 E.13285
G2 X47.048 Y39.367 I-9.111 J-5.43 E.06615
; stop printing object Part1.STL id:0 copy 0
; OBJECT_ID: 108
; printing object Part1.STL id:1 copy 0
G1 E-.56 F1800
;WIPE_START
G1 F9000
G1 X46.751 Y40.208 E-.2033
G1 X46.706 Y40.307 E-.0247
;WIPE_END
G1 E-.012 F1800
EXCLUDE_OBJECT_END NAME=Part1.STL_id_0_copy_0
EXCLUDE_OBJECT_START NAME=Part1.STL_id_1_copy_0
G1 X47.923 Y43.924 Z.4 F27000
G1 X60.243 Y80.566 Z.4
G1 Z.2
G1 E.8 F1800
G1 F9000
G1 X45.792 Y105.597 E.77625
G1 X45.724 Y105.636 E.00211
G1 X16.832 Y105.636 E.77598
G1 X16.764 Y105.597 E.00211
G1 X2.318 Y80.575 E.77598
G1 X2.318 Y80.497 E.00211
G1 X16.764 Y55.475 E.77598
G1 X16.832 Y55.436 E.00211
G1 X45.724 Y55.436 E.77598
M73 P5 R5
G1 X45.792 Y55.475 E.00211
G1 X60.238 Y80.497 E.77598
G1 X60.24 Y80.526 E.0008
G1 X60.305 Y80.618
G1 E-.56 F1800
;WIPE_START
G1 F9000
G1 X59.741 Y81.393 E-.228
;WIPE_END
G1 E-.012 F1800
G1 X55.926 Y81.297 Z.4 F27000
G1 X31.296 Y80.679 Z.4
G1 Z.2
G1 E.8 F1800
G1 F9000
G2 X29.387 Y84.33 I8.317 J6.673 E.11136
G2 X29.456 Y88.738 I7.608 J2.086 E.11999
G2 X31.455 Y92.251 I9.368 J-3.006 E.10936
G2 X38.402 Y96.137 I9.13 J-8.169 E.21774
G2 X42.202 Y95.954 I1.481 J-8.744 E.10297
G2 X46.042 Y93.01 I-1.965 J-6.54 E.13285
G2 X47.048 Y90.767 I-9.111 J-5.43 E.06615
; stop printing object Part1.STL id:1 copy 0
; OBJECT_ID: 153
; printing object Part1.STL id:3 copy 0
G1 E-.56 F1800
;WIPE_START
M73 P6 R5
G1 F9000
G1 X46.751 Y91.608 E-.2033
G1 X46.706 Y91.707 E-.0247
;WIPE_END
G1 E-.012 F1800
EXCLUDE_OBJECT_END NAME=Part1.STL_id_1_copy_0
EXCLUDE_OBJECT_START NAME=Part1.STL_id_3_copy_0
G1 X50.479 Y91.129 Z.4 F27000
G1 X119.44 Y80.566 Z.4
G1 Z.2
G1 E.8 F1800
G1 F9000
G1 X104.989 Y105.597 E.77625
G1 X104.921 Y105.636 E.00211
G1 X76.029 Y105.636 E.77598
G1 X75.961 Y105.597 E.00211
G1 X61.514 Y80.575 E.77598
G1 X61.514 Y80.497 E.00211
G1 X75.961 Y55.475 E.77598
G1 X76.029 Y55.436 E.00211
G1 X104.921 Y55.436 E.77598
G1 X104.989 Y55.475 E.00211
G1 X119.435 Y80.497 E.77598
G1 X119.437 Y80.526 E.0008
G1 X119.501 Y80.618
G1 E-.56 F1800
;WIPE_START
G1 F9000
G1 X118.938 Y81.393 E-.228
;WIPE_END
G1 E-.012 F1800
G1 X115.123 Y81.297 Z.4 F27000
G1 X90.493 Y80.679 Z.4
G1 Z.2
G1 E.8 F1800
G1 F9000
G2 X88.584 Y84.33 I8.317 J6.673 E.11136
G2 X88.653 Y88.738 I7.608 J2.086 E.11999
G2 X90.652 Y92.251 I9.368 J-3.006 E.10936
G2 X97.599 Y96.137 I9.13 J-8.169 E.21774
G2 X101.399 Y95.954 I1.481 J-8.744 E.10297
G2 X105.239 Y93.01 I-1.965 J-6.54 E.13285
G2 X106.244 Y90.767 I-9.111 J-5.43 E.06615
; stop printing object Part1.STL id:3 copy 0
; OBJECT_ID: 131
; printing object Part1.STL id:2 copy 0
G1 E-.56 F1800
;WIPE_START
G1 F9000
G1 X105.948 Y91.608 E-.2033
G1 X105.903 Y91.707 E-.0247
;WIPE_END
G1 E-.012 F1800
EXCLUDE_OBJECT_END NAME=Part1.STL_id_3_copy_0
EXCLUDE_OBJECT_START NAME=Part1.STL_id_2_copy_0
G1 X106.711 Y87.977 Z.4 F27000
G1 X119.44 Y29.166 Z.4
G1 Z.2
G1 E.8 F1800
M73 P7 R5
G1 F9000
G1 X104.989 Y54.197 E.77625
G1 X104.921 Y54.236 E.00211
G1 X76.029 Y54.236 E.77598
G1 X75.961 Y54.197 E.00211
G1 X61.514 Y29.175 E.77598
G1 X61.514 Y29.097 E.00211
G1 X75.961 Y4.075 E.77598
G1 X76.029 Y4.036 E.00211
G1 X104.921 Y4.036 E.77598
G1 X104.989 Y4.075 E.00211
G1 X119.435 Y29.097 E.77598
G1 X119.437 Y29.126 E.0008
G1 X119.501 Y29.218
G1 E-.56 F1800
;WIPE_START
G1 F9000
G1 X118.938 Y29.993 E-.228
;WIPE_END
G1 E-.012 F1800
M73 P8 R5
G1 X115.123 Y29.897 Z.4 F27000
G1 X90.493 Y29.279 Z.4
G1 Z.2
G1 E.8 F1800
G1 F9000
G2 X88.584 Y32.93 I8.317 J6.673 E.11136
G2 X88.653 Y37.338 I7.608 J2.086 E.11999
G2 X90.652 Y40.851 I9.368 J-3.006 E.10936
G2 X97.599 Y44.737 I9.13 J-8.169 E.21774
G2 X101.399 Y44.554 I1.481 J-8.744 E.10297
G2 X105.239 Y41.61 I-1.965 J-6.54 E.13285
G2 X106.244 Y39.367 I-9.111 J-5.43 E.06615
; stop printing object Part1.STL id:2 copy 0
G1 E-.56 F1800
;WIPE_START
G1 F9000
G1 X105.948 Y40.208 E-.2033
G1 X105.903 Y40.307 E-.0247
;WIPE_END
G1 E-.012 F1800
EXCLUDE_OBJECT_END NAME=Part1.STL_id_2_copy_0
;TIME_ELAPSED:36.891640

M106 S255
;LAYER_CHANGE
;:0.4
;HEIGHT:0.2
;BEFORE_LAYER_CHANGE
;0.4
G92 E0

;_SET_FAN_SPEED_CHANGING_LAYER
SET_VELOCITY_LIMIT ACCEL=5000 ACCEL_TO_DECEL=1250
SET_VELOCITY_LIMIT SQUARE_CORNER_VELOCITY=12
M140 S80 ; set bed temperature
; OBJECT_ID: 71
; printing object Part1.STL id:0 copy 0
EXCLUDE_OBJECT_START NAME=Part1.STL_id_0_copy_0
G1 X60.243 Y29.166 Z.4 F27000
G1 E.8 F1800
SET_VELOCITY_LIMIT ACCEL=2000 ACCEL_TO_DECEL=500 SQUARE_CORNER_VELOCITY=9
G1 F12701
G1 X59.91 Y29.743 E.01789
G1 X46.125 Y53.62 E.74048
G1 X45.792 Y54.197 E.01789
G1 X45.724 Y54.236 E.00211
G1 X45.058 Y54.236 E.01789
G1 X17.498 Y54.236 E.74019
G1 X16.832 Y54.236 E.01789
G1 X16.764 Y54.197 E.00211
G1 X16.431 Y53.62 E.01789
G1 X2.65 Y29.752 E.74022
G1 X2.318 Y29.175 E.01788
G1 X2.318 Y29.097 E.00209
G1 X2.65 Y28.52 E.01788
G1 X16.431 Y4.652 E.74022
G1 X16.764 Y4.075 E.01789
G1 X16.832 Y4.036 E.00211
G1 X17.498 Y4.036 E.01789
G1 X45.058 Y4.036 E.74019
G1 X45.724 Y4.036 E.01789
G1 X45.792 Y4.075 E.00211
G1 X46.125 Y4.652 E.01789
G1 X59.905 Y28.52 E.7402
G1 X60.238 Y29.097 E.01789
G1 F12540
G1 X60.24 Y29.126 E.00078
G1 X60.305 Y29.218
G1 E-.56 F1800
;WIPE_START
G1 F12540
G1 X59.741 Y29.993 E-.228
;WIPE_END
G1 E-.012 F1800
SET_VELOCITY_LIMIT ACCEL=5000 ACCEL_TO_DECEL=1250 SQUARE_CORNER_VELOCITY=12
M73 P9 R5
G1 X56.671 Y32.26 Z.6 F27000
G1 X47.048 Y39.367 Z.6
G1 Z.4
G1 E.8 F1800
SET_VELOCITY_LIMIT ACCEL=2000 ACCEL_TO_DECEL=500 SQUARE_CORNER_VELOCITY=9
G1 F12701
G1 X46.751 Y40.208 E.02395
G1 X46.419 Y40.942 E.02164
G1 X46.042 Y41.61 E.0206
G1 X45.622 Y42.213 E.01974
G1 X45.157 Y42.754 E.01916
G1 X44.655 Y43.231 E.0186
G1 F12660
G1 X44.106 Y43.652 E.01858
M73 P10 R5
G1 X43.515 Y44.014 E.01861
G1 X42.879 Y44.315 E.0189
G1 X42.202 Y44.554 E.01928
G1 X41.622 Y44.701 E.01607
G1 F12701
G1 X40.867 Y44.819 E.02052
G1 X40.076 Y44.866 E.02128
G1 X39.251 Y44.84 E.02217
G1 X38.402 Y44.737 E.02297
G1 X37.537 Y44.558 E.02372
G1 X36.665 Y44.301 E.02442
G1 X35.8 Y43.971 E.02487
G1 X34.954 Y43.571 E.02513
G1 X34.23 Y43.164 E.02231
G1 X33.454 Y42.651 E.02498
G1 X32.727 Y42.089 E.02468
G1 X32.06 Y41.487 E.02413
G1 X31.455 Y40.851 E.02358
G1 X30.918 Y40.19 E.02287
G1 X30.45 Y39.508 E.02221
G1 X30.053 Y38.812 E.02152
G1 X29.726 Y38.105 E.02092
G1 F11460
G1 X29.456 Y37.338 E.02184
G1 X29.252 Y36.547 E.02194
G1 F12701
G1 X29.144 Y35.831 E.01945
G1 X29.104 Y35.112 E.01934
G1 X29.13 Y34.388 E.01946
G1 X29.224 Y33.661 E.01969
G1 X29.387 Y32.93 E.02012
G1 X29.623 Y32.194 E.02076
G1 X29.934 Y31.453 E.02158
G1 X30.323 Y30.706 E.02262
G1 X30.796 Y29.954 E.02386
G1 X31.296 Y29.279 E.02256
; stop printing object Part1.STL id:0 copy 0
; OBJECT_ID: 108
; printing object Part1.STL id:1 copy 0
G1 E-.56 F1800
;WIPE_START
G1 F14100
G1 X30.796 Y29.954 E-.1916
G1 X30.711 Y30.089 E-.0364
;WIPE_END
G1 E-.012 F1800
EXCLUDE_OBJECT_END NAME=Part1.STL_id_0_copy_0
EXCLUDE_OBJECT_START NAME=Part1.STL_id_1_copy_0
SET_VELOCITY_LIMIT ACCEL=5000 ACCEL_TO_DECEL=1250 SQUARE_CORNER_VELOCITY=12
G1 X32.638 Y33.383 Z.6 F27000
G1 X60.243 Y80.566 Z.6
G1 Z.4
G1 E.8 F1800
SET_VELOCITY_LIMIT ACCEL=2000 ACCEL_TO_DECEL=500 SQUARE_CORNER_VELOCITY=9
G1 F12701
G1 X59.91 Y81.143 E.01789
G1 X46.125 Y105.02 E.74048
G1 X45.792 Y105.597 E.01789
G1 X45.724 Y105.636 E.00211
G1 X45.058 Y105.636 E.01789
G1 X17.498 Y105.636 E.74019
G1 X16.832 Y105.636 E.01789
G1 X16.764 Y105.597 E.00211
G1 X16.431 Y105.02 E.01789
M73 P11 R5
G1 X2.65 Y81.152 E.74022
G1 X2.318 Y80.575 E.01788
G1 X2.318 Y80.497 E.00209
G1 X2.65 Y79.92 E.01788
G1 X16.431 Y56.052 E.74022
G1 X16.764 Y55.475 E.01789
G1 X16.832 Y55.436 E.00211
G1 X17.498 Y55.436 E.01789
G1 X45.058 Y55.436 E.74019
G1 X45.724 Y55.436 E.01789
G1 X45.792 Y55.475 E.00211
G1 X46.125 Y56.052 E.01789
G1 X59.905 Y79.92 E.7402
G1 X60.238 Y80.497 E.01789
M73 P11 R4
G1 F12540
G1 X60.24 Y80.526 E.00078
G1 X60.305 Y80.618
G1 E-.56 F1800
;WIPE_START
G1 F12540
G1 X59.741 Y81.393 E-.228
;WIPE_END
G1 E-.012 F1800
SET_VELOCITY_LIMIT ACCEL=5000 ACCEL_TO_DECEL=1250 SQUARE_CORNER_VELOCITY=12
G1 X56.671 Y83.66 Z.6 F27000
G1 X47.048 Y90.767 Z.6
G1 Z.4
G1 E.8 F1800
SET_VELOCITY_LIMIT ACCEL=2000 ACCEL_TO_DECEL=500 SQUARE_CORNER_VELOCITY=9
G1 F12701
G1 X46.751 Y91.608 E.02395
G1 X46.419 Y92.342 E.02164
G1 X46.042 Y93.01 E.0206
G1 X45.622 Y93.613 E.01974
G1 X45.157 Y94.154 E.01916
G1 X44.655 Y94.631 E.0186
G1 F12660
G1 X44.106 Y95.052 E.01858
G1 X43.515 Y95.414 E.01861
G1 X42.879 Y95.715 E.0189
G1 X42.202 Y95.954 E.01928
G1 X41.622 Y96.101 E.01607
G1 F12701
G1 X40.867 Y96.219 E.02052
G1 X40.076 Y96.266 E.02128
G1 X39.251 Y96.24 E.02217
G1 X38.402 Y96.137 E.02297
G1 X37.537 Y95.958 E.02372
G1 X36.665 Y95.701 E.02442
G1 X35.8 Y95.371 E.02487
G1 X34.954 Y94.971 E.02513
G1 X34.23 Y94.564 E.02231
G1 X33.454 Y94.051 E.02498
G1 X32.727 Y93.489 E.02468
G1 X32.06 Y92.887 E.02413
G1 X31.455 Y92.251 E.02358
G1 X30.918 Y91.59 E.02287
G1 X30.45 Y90.908 E.02221
G1 X30.053 Y90.212 E.02152
G1 X29.726 Y89.505 E.02092
G1 F11460
G1 X29.456 Y88.738 E.02184
G1 X29.252 Y87.947 E.02194
G1 F12701
G1 X29.144 Y87.231 E.01945
G1 X29.104 Y86.512 E.01934
G1 X29.13 Y85.788 E.01946
G1 X29.224 Y85.061 E.01969
G1 X29.387 Y84.33 E.02012
G1 X29.623 Y83.594 E.02076
G1 X29.934 Y82.853 E.02158
G1 X30.323 Y82.106 E.02262
G1 X30.796 Y81.354 E.02386
G1 X31.296 Y80.679 E.02256
; stop printing object Part1.STL id:1 copy 0
; OBJECT_ID: 153
; printing object Part1.STL id:3 copy 0
G1 E-.56 F1800
;WIPE_START
G1 F14100
G1 X30.796 Y81.354 E-.1916
G1 X30.711 Y81.489 E-.0364
;WIPE_END
G1 E-.012 F1800
EXCLUDE_OBJECT_END NAME=Part1.STL_id_1_copy_0
EXCLUDE_OBJECT_START NAME=Part1.STL_id_3_copy_0
SET_VELOCITY_LIMIT ACCEL=5000 ACCEL_TO_DECEL=1250 SQUARE_CORNER_VELOCITY=12
G1 X34.527 Y81.449 Z.6 F27000
G1 X119.44 Y80.566 Z.6
G1 Z.4
G1 E.8 F1800
SET_VELOCITY_LIMIT ACCEL=2000 ACCEL_TO_DECEL=500 SQUARE_CORNER_VELOCITY=9
G1 F12701
G1 X119.107 Y81.143 E.01789
G1 X105.322 Y105.02 E.74048
G1 X104.989 Y105.597 E.01789
G1 X104.921 Y105.636 E.00211
G1 X104.255 Y105.636 E.01789
G1 X76.694 Y105.636 E.74022
G1 X76.029 Y105.636 E.01786
G1 X75.961 Y105.597 E.00211
G1 X75.628 Y105.02 E.01789
G1 X61.847 Y81.152 E.74022
M73 P12 R4
G1 X61.514 Y80.575 E.01789
G1 X61.514 Y80.497 E.00209
G1 X61.847 Y79.92 E.01789
G1 X75.628 Y56.052 E.74022
G1 X75.961 Y55.475 E.01789
G1 X76.029 Y55.436 E.00211
G1 X76.694 Y55.436 E.01786
G1 X104.255 Y55.436 E.74022
G1 X104.921 Y55.436 E.01789
G1 X104.989 Y55.475 E.00211
G1 X105.322 Y56.052 E.01789
G1 X119.102 Y79.92 E.7402
G1 X119.435 Y80.497 E.01789
G1 F12540
G1 X119.437 Y80.526 E.00078
G1 X119.501 Y80.618
G1 E-.56 F1800
;WIPE_START
G1 F12540
G1 X118.938 Y81.393 E-.228
;WIPE_END
G1 E-.012 F1800
SET_VELOCITY_LIMIT ACCEL=5000 ACCEL_TO_DECEL=1250 SQUARE_CORNER_VELOCITY=12
G1 X115.868 Y83.66 Z.6 F27000
G1 X106.244 Y90.767 Z.6
G1 Z.4
G1 E.8 F1800
SET_VELOCITY_LIMIT ACCEL=2000 ACCEL_TO_DECEL=500 SQUARE_CORNER_VELOCITY=9
G1 F12701
G1 X105.948 Y91.608 E.02395
G1 X105.616 Y92.342 E.02164
G1 X105.239 Y93.01 E.0206
G1 X104.818 Y93.613 E.01975
G1 X104.354 Y94.154 E.01914
G1 X103.852 Y94.631 E.0186
G1 F12660
G1 X103.303 Y95.052 E.01858
G1 X102.712 Y95.414 E.01861
G1 X102.076 Y95.715 E.0189
G1 X101.399 Y95.954 E.01928
G1 X100.818 Y96.101 E.0161
G1 F12701
G1 X100.064 Y96.219 E.0205
G1 X99.272 Y96.266 E.02131
G1 X98.448 Y96.24 E.02214
G1 X97.599 Y96.137 E.02297
G1 X96.733 Y95.958 E.02375
G1 X95.862 Y95.701 E.02439
G1 X94.996 Y95.371 E.02489
G1 X94.151 Y94.971 E.02511
G1 X93.427 Y94.564 E.02231
G1 X92.651 Y94.051 E.02498
G1 X91.924 Y93.489 E.02468
G1 X91.257 Y92.887 E.02413
G1 X90.652 Y92.251 E.02358
G1 X90.115 Y91.59 E.02287
G1 X89.647 Y90.908 E.02221
G1 X89.25 Y90.212 E.02152
G1 X88.923 Y89.505 E.02092
G1 F11460
G1 X88.653 Y88.738 E.02184
G1 X88.449 Y87.947 E.02194
G1 F12701
G1 X88.341 Y87.231 E.01945
G1 X88.3 Y86.512 E.01934
G1 X88.327 Y85.788 E.01946
G1 X88.421 Y85.061 E.01969
G1 X88.584 Y84.33 E.02012
