; HEADER_BLOCK_START
; generated by Creality_Print V7.1.1.4472 on 2026-05-17 at 14:52:16
; total layer number: 25
; filament_density: 1.24
; filament_diameter: 1.75
; max_z_height: 5.00
; creality_uuid: c8367422-24e3-443c-ae7e-3eebfcd93471
; HEADER_BLOCK_END

; MINX = 2.18
; MINY = 3.94
; MINZ = 0.00
; MAXX = 60.38
; MAXY = 54.34
; MAXZ = 5.00

; multicolor_method = 0 
; THUMBNAIL_BLOCK_START

;
; THUMBNAIL_BLOCK_END

; THUMBNAIL_BLOCK_START

;
; THUMBNAIL_BLOCK_END

; external perimeters extrusion width = 0.42mm
; perimeters extrusion width = 0.45mm
; infill extrusion width = 0.45mm
; solid infill extrusion width = 0.42mm
; top infill extrusion width = 0.42mm
; first layer extrusion width = 0.50mm

; EXECUTABLE_BLOCK_START
EXCLUDE_OBJECT_DEFINE NAME=Part1.STL_id_0_copy_0 CENTER=31.2779,29.1359 POLYGON=[[2.1794,29.1359],[16.7286,3.93595],[45.8271,3.93595],[60.3763,29.1359],[45.8271,54.3359],[16.7286,54.3359],[2.1794,29.1359]]
M73 P0 R2
; max_print_temp = 80,237
;TYPE:Custom
M220 S100 ;Reset Feedrate 
M221 S100 ;Reset Flowrate 
 
M140 S80 ;Set final bed temp  
G28 ;Home 
 
G92 E0 ;Reset Extruder 
G1 Z2.0 F3000 ;Move Z Axis up 
M104 S237 ;Set final nozzle temp  
G1 X-2.0 Y20 Z0.28 F5000.0 ;Move to start position 
M190 S80 ;Wait for bed temp to stabilize  
M109 S237 ;Wait for nozzle temp to stabilize  
G1 X-2.0 Y145.0 Z0.28 F1500.0 E15 ;Draw the first line 
G1 X-1.7 Y145.0 Z0.28 F5000.0 ;Move to side a little 
M73 P3 R2
G1 X-1.7 Y20 Z0.28 F1500.0 E30 ;Draw the second line 
G92 E0 ;Reset Extruder 
G1 E-1.0000 F1800 ;Retract a bit 
M73 P6 R2
G1 Z2.0 F3000 ;Move Z Axis up 
G1 E0.0000 F1800
G90
G21
M83 ; use relative distances for extrusion
; filament start gcode
SET_PRESSURE_ADVANCE ADVANCE=0.044; Override pressure advance value
G1 E-.8 F1800
G1 Z.2 F27000
M106 S0
;LAYER_CHANGE
;:0.2
;HEIGHT:0.2
;BEFORE_LAYER_CHANGE
;0.2
G92 E0

;_SET_FAN_SPEED_CHANGING_LAYER
SET_VELOCITY_LIMIT ACCEL=500 ACCEL_TO_DECEL=125
SET_VELOCITY_LIMIT SQUARE_CORNER_VELOCITY=9
; OBJECT_ID: 71
; printing object Part1.STL id:0 copy 0
EXCLUDE_OBJECT_START NAME=Part1.STL_id_0_copy_0
G1 X60.243 Y29.166 Z.4 F27000
G1 Z.2
M73 P7 R2
G1 E.8 F1800
;TYPE:Outer wall
;WIDTH:0.38292
G1 F2635
G1 X45.792 Y54.197 E.77625
G1 X45.724 Y54.236 E.00211
G1 X16.832 Y54.236 E.77598
M73 P8 R2
G1 X16.764 Y54.197 E.00211
G1 X2.318 Y29.175 E.77598
G1 X2.318 Y29.097 E.00211
G1 X16.764 Y4.075 E.77598
G1 X16.832 Y4.036 E.00211
M73 P9 R2
G1 X45.724 Y4.036 E.77598
G1 X45.792 Y4.075 E.00211
G1 X60.238 Y29.097 E.77598
G1 X60.24 Y29.126 E.0008
M73 P10 R2
G1 X60.305 Y29.218
G1 E-.56 F1800
;WIPE_START
G1 F9000
G1 X59.741 Y29.993 E-.228
;WIPE_END
G1 E-.012 F1800
G1 X55.926 Y29.897 Z.4 F27000
G1 X31.296 Y29.279 Z.4
G1 Z.2
M73 P11 R2
G1 E.8 F1800
G1 F2635
G2 X29.387 Y32.93 I8.317 J6.673 E.11136
G2 X29.456 Y37.338 I7.608 J2.086 E.11999
G2 X31.455 Y40.851 I9.368 J-3.006 E.10936
G2 X38.402 Y44.737 I9.13 J-8.169 E.21774
G2 X42.202 Y44.554 I1.481 J-8.744 E.10297
G2 X46.042 Y41.61 I-1.965 J-6.54 E.13285
G2 X47.048 Y39.367 I-9.111 J-5.43 E.06615
; stop printing object Part1.STL id:0 copy 0
G1 E-.56 F1800
;WIPE_START
G1 F9000
G1 X46.751 Y40.208 E-.2033
G1 X46.706 Y40.307 E-.0247
;WIPE_END
G1 E-.012 F1800
EXCLUDE_OBJECT_END NAME=Part1.STL_id_0_copy_0
;TIME_ELAPSED:17.839268

M106 S255
;LAYER_CHANGE
;:0.4
;HEIGHT:0.2
;BEFORE_LAYER_CHANGE
;0.4
G92 E0

;_SET_FAN_SPEED_CHANGING_LAYER
SET_VELOCITY_LIMIT ACCEL=5000 ACCEL_TO_DECEL=1250
SET_VELOCITY_LIMIT SQUARE_CORNER_VELOCITY=12
M140 S80 ; set bed temperature
; OBJECT_ID: 71
; printing object Part1.STL id:0 copy 0
EXCLUDE_OBJECT_START NAME=Part1.STL_id_0_copy_0
G1 X60.243 Y29.166 Z.4 F27000
G1 E.8 F1800
SET_VELOCITY_LIMIT ACCEL=2000 ACCEL_TO_DECEL=500 SQUARE_CORNER_VELOCITY=9
G1 F2557
G1 X59.91 Y29.743 E.01789
G1 X46.125 Y53.62 E.74048
G1 X45.792 Y54.197 E.01789
G1 X45.724 Y54.236 E.00211
G1 X45.058 Y54.236 E.01789
G1 X17.498 Y54.236 E.74019
G1 X16.832 Y54.236 E.01789
G1 X16.764 Y54.197 E.00211
G1 X16.431 Y53.62 E.01789
G1 X2.65 Y29.752 E.74022
G1 X2.318 Y29.175 E.01788
G1 X2.318 Y29.097 E.00209
G1 X2.65 Y28.52 E.01788
G1 X16.431 Y4.652 E.74022
G1 X16.764 Y4.075 E.01789
G1 X16.832 Y4.036 E.00211
G1 X17.498 Y4.036 E.01789
G1 X45.058 Y4.036 E.74019
G1 X45.724 Y4.036 E.01789
G1 X45.792 Y4.075 E.00211
G1 X46.125 Y4.652 E.01789
G1 X59.905 Y28.52 E.7402
G1 X60.238 Y29.097 E.01789
G1 X60.24 Y29.126 E.00078
G1 X60.305 Y29.218
G1 E-.56 F1800
;WIPE_START
G1 F12540
M73 P12 R2
G1 X59.741 Y29.993 E-.228
;WIPE_END
G1 E-.012 F1800
SET_VELOCITY_LIMIT ACCEL=5000 ACCEL_TO_DECEL=1250 SQUARE_CORNER_VELOCITY=12
G1 X56.671 Y32.26 Z.6 F27000
G1 X47.048 Y39.367 Z.6
G1 Z.4
G1 E.8 F1800
SET_VELOCITY_LIMIT ACCEL=2000 ACCEL_TO_DECEL=500 SQUARE_CORNER_VELOCITY=9
G1 F2557
G1 X46.751 Y40.208 E.02395
M73 P13 R2
G1 X46.419 Y40.942 E.02164
G1 X46.042 Y41.61 E.0206
G1 X45.622 Y42.213 E.01974
G1 X45.157 Y42.754 E.01916
G1 X44.655 Y43.231 E.0186
G1 X44.106 Y43.652 E.01858
G1 X43.515 Y44.014 E.01861
G1 X42.879 Y44.315 E.0189
M73 P14 R2
G1 X42.202 Y44.554 E.01928
G1 X41.622 Y44.701 E.01607
G1 X40.867 Y44.819 E.02052
G1 X40.076 Y44.866 E.02128
G1 X39.251 Y44.84 E.02217
G1 X38.402 Y44.737 E.02297
G1 X37.537 Y44.558 E.02372
G1 X36.665 Y44.301 E.02442
G1 X35.8 Y43.971 E.02487
G1 X34.954 Y43.571 E.02513
G1 X34.23 Y43.164 E.02231
G1 X33.454 Y42.651 E.02498
G1 X32.727 Y42.089 E.02468
G1 X32.06 Y41.487 E.02413
G1 X31.455 Y40.851 E.02358
G1 X30.918 Y40.19 E.02287
G1 X30.45 Y39.508 E.02221
G1 X30.053 Y38.812 E.02152
G1 X29.726 Y38.105 E.02092
G1 X29.456 Y37.338 E.02184
G1 X29.252 Y36.547 E.02194
G1 X29.144 Y35.831 E.01945
G1 X29.104 Y35.112 E.01934
G1 X29.13 Y34.388 E.01946
G1 X29.224 Y33.661 E.01969
M73 P15 R2
G1 X29.387 Y32.93 E.02012
G1 X29.623 Y32.194 E.02076
G1 X29.934 Y31.453 E.02158
G1 X30.323 Y30.706 E.02262
G1 X30.796 Y29.954 E.02386
G1 X31.296 Y29.279 E.02256
; stop printing object Part1.STL id:0 copy 0
G1 E-.56 F1800
;WIPE_START
G1 F14100
G1 X30.796 Y29.954 E-.1916
G1 X30.711 Y30.089 E-.0364
;WIPE_END
G1 E-.012 F1800
EXCLUDE_OBJECT_END NAME=Part1.STL_id_0_copy_0
;TIME_ELAPSED:23.411287

;LAYER_CHANGE
;:0.6
;HEIGHT:0.2
;BEFORE_LAYER_CHANGE
;0.6
G92 E0

;_SET_FAN_SPEED_CHANGING_LAYER
; OBJECT_ID: 71
; printing object Part1.STL id:0 copy 0
EXCLUDE_OBJECT_START NAME=Part1.STL_id_0_copy_0
SET_VELOCITY_LIMIT ACCEL=5000 ACCEL_TO_DECEL=1250 SQUARE_CORNER_VELOCITY=12
G1 X60.243 Y29.166 Z.6 F27000
G1 E.8 F1800
SET_VELOCITY_LIMIT ACCEL=2000 ACCEL_TO_DECEL=500 SQUARE_CORNER_VELOCITY=9
G1 F2571
G1 X59.91 Y29.743 E.01789
G1 X46.125 Y53.62 E.74048
G1 X45.792 Y54.197 E.01789
G1 X45.724 Y54.236 E.00211
G1 X45.058 Y54.236 E.01789
G1 X17.498 Y54.236 E.74019
G1 X16.832 Y54.236 E.01789
G1 X16.764 Y54.197 E.00211
G1 X16.431 Y53.62 E.01789
G1 X2.65 Y29.752 E.74022
G1 X2.318 Y29.175 E.01788
G1 X2.318 Y29.097 E.00209
G1 X2.65 Y28.52 E.01788
G1 X16.431 Y4.652 E.74022
G1 X16.764 Y4.075 E.01789
G1 X16.832 Y4.036 E.00211
G1 X17.498 Y4.036 E.01789
G1 X45.058 Y4.036 E.74019
G1 X45.724 Y4.036 E.01789
G1 X45.792 Y4.075 E.00211
G1 X46.125 Y4.652 E.01789
G1 X59.905 Y28.52 E.7402
G1 X60.238 Y29.097 E.01789
G1 X60.24 Y29.126 E.00078
G1 X60.305 Y29.218
G1 E-.56 F1800
;WIPE_START
G1 F12540
G1 X59.741 Y29.993 E-.228
;WIPE_END
G1 E-.012 F1800
SET_VELOCITY_LIMIT ACCEL=5000 ACCEL_TO_DECEL=1250 SQUARE_CORNER_VELOCITY=12
G1 X56.671 Y32.26 Z.8 F27000
G1 X47.048 Y39.367 Z.8
M73 P16 R2
G1 Z.6
G1 E.8 F1800
SET_VELOCITY_LIMIT ACCEL=2000 ACCEL_TO_DECEL=500 SQUARE_CORNER_VELOCITY=9
G1 F2571
G1 X46.751 Y40.208 E.02395
G1 X46.419 Y40.942 E.02164
G1 X46.042 Y41.61 E.0206
G1 X45.622 Y42.213 E.01974
G1 X45.157 Y42.754 E.01916
M73 P17 R2
G1 X44.655 Y43.231 E.0186
G1 X44.106 Y43.652 E.01858
G1 X43.515 Y44.014 E.01861
G1 X42.879 Y44.315 E.0189
G1 X42.202 Y44.554 E.01928
G1 X41.622 Y44.701 E.01607
G1 X40.867 Y44.819 E.02052
G1 X40.076 Y44.866 E.02128
M73 P18 R2
G1 X39.251 Y44.84 E.02217
G1 X38.402 Y44.737 E.02297
G1 X37.537 Y44.558 E.02372
G1 X36.665 Y44.301 E.02442
G1 X35.8 Y43.971 E.02487
G1 X34.955 Y43.571 E.02511
G1 X34.23 Y43.164 E.02233
G1 X33.454 Y42.651 E.02498
G1 X32.727 Y42.089 E.02468
G1 X32.06 Y41.487 E.02413
G1 X31.455 Y40.851 E.02358
G1 X30.918 Y40.19 E.02287
G1 X30.45 Y39.508 E.02221
G1 X30.053 Y38.812 E.02152
G1 X29.726 Y38.105 E.02092
G1 X29.456 Y37.338 E.02184
G1 X29.252 Y36.547 E.02194
G1 X29.144 Y35.831 E.01945
G1 X29.104 Y35.112 E.01934
G1 X29.13 Y34.388 E.01946
G1 X29.224 Y33.661 E.01969
G1 X29.387 Y32.93 E.02012
G1 X29.623 Y32.194 E.02076
G1 X29.934 Y31.453 E.02158
G1 X30.323 Y30.706 E.02262
G1 X30.796 Y29.954 E.02386
G1 X31.296 Y29.279 E.02256
; stop printing object Part1.STL id:0 copy 0
G1 E-.56 F1800
;WIPE_START
G1 F14100
G1 X30.796 Y29.954 E-.1916
G1 X30.711 Y30.089 E-.0364
;WIPE_END
G1 E-.012 F1800
EXCLUDE_OBJECT_END NAME=Part1.STL_id_0_copy_0
;TIME_ELAPSED:29.002773

;LAYER_CHANGE
;:0.8
;HEIGHT:0.2
;BEFORE_LAYER_CHANGE
;0.8
G92 E0

;_SET_FAN_SPEED_CHANGING_LAYER
; OBJECT_ID: 71
; printing object Part1.STL id:0 copy 0
EXCLUDE_OBJECT_START NAME=Part1.STL_id_0_copy_0
SET_VELOCITY_LIMIT ACCEL=5000 ACCEL_TO_DECEL=1250 SQUARE_CORNER_VELOCITY=12
G1 X60.243 Y29.166 Z.8 F27000
G1 E.8 F1800
SET_VELOCITY_LIMIT ACCEL=2000 ACCEL_TO_DECEL=500 SQUARE_CORNER_VELOCITY=9
G1 F2571
G1 X59.91 Y29.743 E.01789
G1 X46.125 Y53.62 E.74048
G1 X45.792 Y54.197 E.01789
G1 X45.724 Y54.236 E.00211
G1 X45.058 Y54.236 E.01789
G1 X17.498 Y54.236 E.74019
G1 X16.832 Y54.236 E.01789
G1 X16.764 Y54.197 E.00211
G1 X16.431 Y53.62 E.01789
G1 X2.65 Y29.752 E.74022
G1 X2.318 Y29.175 E.01788
G1 X2.318 Y29.097 E.00209
M73 P19 R2
G1 X2.65 Y28.52 E.01788
G1 X16.431 Y4.652 E.74022
G1 X16.764 Y4.075 E.01789
G1 X16.832 Y4.036 E.00211
G1 X17.498 Y4.036 E.01789
G1 X45.058 Y4.036 E.74019
G1 X45.724 Y4.036 E.01789
G1 X45.792 Y4.075 E.00211
G1 X46.125 Y4.652 E.01789
G1 X59.905 Y28.52 E.7402
G1 X60.238 Y29.097 E.01789
G1 X60.24 Y29.126 E.00078
G1 X60.305 Y29.218
G1 E-.56 F1800
;WIPE_START
G1 F12540
G1 X59.741 Y29.993 E-.228
;WIPE_END
G1 E-.012 F1800
SET_VELOCITY_LIMIT ACCEL=5000 ACCEL_TO_DECEL=1250 SQUARE_CORNER_VELOCITY=12
G1 X56.671 Y32.26 Z1 F27000
G1 X47.048 Y39.367 Z1
M73 P20 R2
G1 Z.8
G1 E.8 F1800
SET_VELOCITY_LIMIT ACCEL=2000 ACCEL_TO_DECEL=500 SQUARE_CORNER_VELOCITY=9
G1 F2571
G1 X46.751 Y40.208 E.02395
G1 X46.419 Y40.942 E.02164
G1 X46.042 Y41.61 E.0206
G1 X45.622 Y42.213 E.01974
G1 X45.157 Y42.754 E.01916
M73 P21 R2
G1 X44.655 Y43.231 E.0186
G1 X44.106 Y43.652 E.01858
G1 X43.515 Y44.014 E.01861
G1 X42.879 Y44.315 E.0189
G1 X42.202 Y44.554 E.01928
G1 X41.622 Y44.701 E.01607
G1 X40.867 Y44.819 E.02052
G1 X40.076 Y44.866 E.02128
M73 P21 R1
G1 X39.251 Y44.84 E.02217
G1 X38.402 Y44.737 E.02297
G1 X37.537 Y44.558 E.02372
M73 P22 R1
G1 X36.665 Y44.301 E.02442
G1 X35.8 Y43.971 E.02487
G1 X34.954 Y43.571 E.02513
G1 X34.23 Y43.164 E.02231
G1 X33.454 Y42.651 E.02498
G1 X32.727 Y42.089 E.02468
G1 X32.06 Y41.487 E.02413
G1 X31.455 Y40.851 E.02358
G1 X30.918 Y40.19 E.02287
G1 X30.45 Y39.508 E.02221
G1 X30.053 Y38.812 E.02152
G1 X29.726 Y38.105 E.02092
G1 X29.456 Y37.338 E.02184
G1 X29.252 Y36.547 E.02194
G1 X29.144 Y35.831 E.01945
G1 X29.104 Y35.112 E.01934
G1 X29.13 Y34.388 E.01946
G1 X29.224 Y33.661 E.01969
G1 X29.387 Y32.93 E.02012
G1 X29.623 Y32.194 E.02076
G1 X29.934 Y31.453 E.02158
G1 X30.323 Y30.706 E.02262
G1 X30.796 Y29.954 E.02386
G1 X31.296 Y29.279 E.02256
; stop printing object Part1.STL id:0 copy 0
G1 E-.56 F1800
;WIPE_START
G1 F14100
G1 X30.796 Y29.954 E-.1916
G1 X30.711 Y30.089 E-.0364
;WIPE_END
G1 E-.012 F1800
EXCLUDE_OBJECT_END NAME=Part1.STL_id_0_copy_0
;TIME_ELAPSED:34.594257

;LAYER_CHANGE
;:1
;HEIGHT:0.2
;BEFORE_LAYER_CHANGE
;1
G92 E0

;_SET_FAN_SPEED_CHANGING_LAYER
; OBJECT_ID: 71
; printing object Part1.STL id:0 copy 0
EXCLUDE_OBJECT_START NAME=Part1.STL_id_0_copy_0
SET_VELOCITY_LIMIT ACCEL=5000 ACCEL_TO_DECEL=1250 SQUARE_CORNER_VELOCITY=12
G1 X60.243 Y29.166 Z1 F27000
G1 E.8 F1800
SET_VELOCITY_LIMIT ACCEL=2000 ACCEL_TO_DECEL=500 SQUARE_CORNER_VELOCITY=9
G1 F2571
G1 X59.91 Y29.743 E.01789
G1 X46.125 Y53.62 E.74048
G1 X45.792 Y54.197 E.01789
G1 X45.724 Y54.236 E.00211
G1 X45.058 Y54.236 E.01789
G1 X17.498 Y54.236 E.74019
G1 X16.832 Y54.236 E.01789
G1 X16.764 Y54.197 E.00211
G1 X16.431 Y53.62 E.01789
G1 X2.65 Y29.752 E.74022
G1 X2.318 Y29.175 E.01788
G1 X2.318 Y29.097 E.00209
G1 X2.65 Y28.52 E.01788
G1 X16.431 Y4.652 E.74022
G1 X16.764 Y4.075 E.01789
G1 X16.832 Y4.036 E.00211
G1 X17.498 Y4.036 E.01789
G1 X45.058 Y4.036 E.74019
G1 X45.724 Y4.036 E.01789
G1 X45.792 Y4.075 E.00211
G1 X46.125 Y4.652 E.01789
G1 X59.905 Y28.52 E.7402
G1 X60.238 Y29.097 E.01789
G1 X60.24 Y29.126 E.00078
G1 X60.305 Y29.218
G1 E-.56 F1800
;WIPE_START
G1 F12540
M73 P23 R1
G1 X59.741 Y29.993 E-.228
;WIPE_END
G1 E-.012 F1800
SET_VELOCITY_LIMIT ACCEL=5000 ACCEL_TO_DECEL=1250 SQUARE_CORNER_VELOCITY=12
G1 X56.671 Y32.26 Z1.2 F27000
G1 X47.048 Y39.367 Z1.2
G1 Z1
G1 E.8 F1800
SET_VELOCITY_LIMIT ACCEL=2000 ACCEL_TO_DECEL=500 SQUARE_CORNER_VELOCITY=9
G1 F2571
G1 X46.751 Y40.208 E.02395
M73 P24 R1
G1 X46.419 Y40.942 E.02164
G1 X46.042 Y41.61 E.0206
G1 X45.622 Y42.213 E.01974
G1 X45.157 Y42.754 E.01916
G1 X44.655 Y43.231 E.0186
G1 X44.106 Y43.652 E.01858
G1 X43.515 Y44.014 E.01861
G1 X42.879 Y44.315 E.0189
M73 P25 R1
G1 X42.202 Y44.554 E.01928
G1 X41.622 Y44.701 E.01607
G1 X40.867 Y44.819 E.02052
G1 X40.076 Y44.866 E.02128
G1 X39.251 Y44.84 E.02217
G1 X38.402 Y44.737 E.02297
G1 X37.537 Y44.558 E.02372
G1 X36.665 Y44.301 E.02442
G1 X35.8 Y43.971 E.02487
G1 X34.954 Y43.571 E.02513
G1 X34.23 Y43.164 E.02231
G1 X33.454 Y42.651 E.02498
G1 X32.727 Y42.089 E.02468
G1 X32.06 Y41.487 E.02413
G1 X31.455 Y40.851 E.02358
G1 X30.918 Y40.19 E.02287
G1 X30.45 Y39.508 E.02221
G1 X30.053 Y38.812 E.02152
G1 X29.726 Y38.105 E.02092
G1 X29.456 Y37.338 E.02184
G1 X29.252 Y36.547 E.02194
G1 X29.144 Y35.831 E.01945
G1 X29.104 Y35.112 E.01934
G1 X29.13 Y34.388 E.01946
G1 X29.224 Y33.661 E.01969
M73 P26 R1
G1 X29.387 Y32.93 E.02012
G1 X29.623 Y32.194 E.02076
G1 X29.934 Y31.453 E.02158
G1 X30.323 Y30.706 E.02262
G1 X30.796 Y29.954 E.02386
G1 X31.296 Y29.279 E.02256
; stop printing object Part1.STL id:0 copy 0
G1 E-.56 F1800
;WIPE_START
G1 F14100
G1 X30.796 Y29.954 E-.1916
G1 X30.711 Y30.089 E-.0364
;WIPE_END
G1 E-.012 F1800
EXCLUDE_OBJECT_END NAME=Part1.STL_id_0_copy_0
;TIME_ELAPSED:40.185757

;LAYER_CHANGE
;:1.2
;HEIGHT:0.2
;BEFORE_LAYER_CHANGE
;1.2
G92 E0

;_SET_FAN_SPEED_CHANGING_LAYER
; OBJECT_ID: 71
; printing object Part1.STL id:0 copy 0
EXCLUDE_OBJECT_START NAME=Part1.STL_id_0_copy_0
SET_VELOCITY_LIMIT ACCEL=5000 ACCEL_TO_DECEL=1250 SQUARE_CORNER_VELOCITY=12
G1 X60.243 Y29.166 Z1.2 F27000
G1 E.8 F1800
SET_VELOCITY_LIMIT ACCEL=2000 ACCEL_TO_DECEL=500 SQUARE_CORNER_VELOCITY=9
G1 F2571
G1 X59.91 Y29.743 E.01789
G1 X46.125 Y53.62 E.74048
G1 X45.792 Y54.197 E.01789
G1 X45.724 Y54.236 E.00211
G1 X45.058 Y54.236 E.01789
G1 X17.498 Y54.236 E.74019
G1 X16.832 Y54.236 E.01789
G1 X16.764 Y54.197 E.00211
G1 X16.431 Y53.62 E.01789
G1 X2.65 Y29.752 E.74022
G1 X2.318 Y29.175 E.01788
G1 X2.318 Y29.097 E.00209
G1 X2.65 Y28.52 E.01788
G1 X16.431 Y4.652 E.74022
G1 X16.764 Y4.075 E.01789
G1 X16.832 Y4.036 E.00211
G1 X17.498 Y4.036 E.01789
G1 X45.058 Y4.036 E.74019
G1 X45.724 Y4.036 E.01789
G1 X45.792 Y4.075 E.00211
G1 X46.125 Y4.652 E.01789
G1 X59.905 Y28.52 E.7402
G1 X60.238 Y29.097 E.01789
G1 X60.24 Y29.126 E.00078
G1 X60.305 Y29.218
G1 E-.56 F1800
;WIPE_START
G1 F12540
G1 X59.741 Y29.993 E-.228
;WIPE_END
G1 E-.012 F1800
SET_VELOCITY_LIMIT ACCEL=5000 ACCEL_TO_DECEL=1250 SQUARE_CORNER_VELOCITY=12
G1 X56.671 Y32.26 Z1.4 F27000
M73 P27 R1
G1 X47.048 Y39.367 Z1.4
G1 Z1.2
G1 E.8 F1800
SET_VELOCITY_LIMIT ACCEL=2000 ACCEL_TO_DECEL=500 SQUARE_CORNER_VELOCITY=9
G1 F2571
G1 X46.751 Y40.208 E.02395
G1 X46.419 Y40.942 E.02164
G1 X46.042 Y41.61 E.0206
G1 X45.622 Y42.213 E.01974
G1 X45.157 Y42.754 E.01916
M73 P28 R1
G1 X44.655 Y43.231 E.0186
G1 X44.106 Y43.652 E.01858
G1 X43.515 Y44.014 E.01861
G1 X42.879 Y44.315 E.0189
G1 X42.202 Y44.554 E.01928
G1 X41.622 Y44.701 E.01607
G1 X40.867 Y44.819 E.02052
G1 X40.076 Y44.866 E.02128
M73 P29 R1
G1 X39.251 Y44.84 E.02217
G1 X38.402 Y44.737 E.02297
G1 X37.537 Y44.558 E.02372
