; HEADER_BLOCK_START
; generated by Creality_Print V7.1.1.4472 on 2026-05-17 at 10:32:17
; total layer number: 3
; filament_density: 1.24
; filament_diameter: 1.75
; max_z_height: 0.60
; creality_uuid: a733ea34-be07-4298-8c6b-055fc922e462
; HEADER_BLOCK_END

; MINX = 4.67
; MINY = 5.00
; MINZ = 0.00
; MAXX = 122.06
; MAXY = 106.80
; MAXZ = 0.50

; multicolor_method = 0 
; THUMBNAIL_BLOCK_START

;
; THUMBNAIL_BLOCK_END

; THUMBNAIL_BLOCK_START

;
; THUMBNAIL_BLOCK_END

; external perimeters extrusion width = 0.42mm
; perimeters extrusion width = 0.45mm
; infill extrusion width = 0.45mm
; solid infill extrusion width = 0.42mm
; top infill extrusion width = 0.42mm
; first layer extrusion width = 0.50mm

; external perimeters extrusion width = 0.42mm
; perimeters extrusion width = 0.45mm
; infill extrusion width = 0.45mm
; solid infill extrusion width = 0.42mm
; top infill extrusion width = 0.42mm
; first layer extrusion width = 0.50mm

; external perimeters extrusion width = 0.42mm
; perimeters extrusion width = 0.45mm
; infill extrusion width = 0.45mm
; solid infill extrusion width = 0.42mm
; top infill extrusion width = 0.42mm
; first layer extrusion width = 0.50mm

; external perimeters extrusion width = 0.42mm
; perimeters extrusion width = 0.45mm
; infill extrusion width = 0.45mm
; solid infill extrusion width = 0.42mm
; top infill extrusion width = 0.42mm
; first layer extrusion width = 0.50mm

; EXECUTABLE_BLOCK_START
EXCLUDE_OBJECT_DEFINE NAME=Part1.STL_id_0_copy_0 CENTER=33.768,30.2042 POLYGON=[[4.66953,30.2042],[19.2188,5.00417],[48.3172,5.00417],[62.8664,30.2042],[48.3172,55.4042],[19.2188,55.4042],[4.66953,30.2042]]
EXCLUDE_OBJECT_DEFINE NAME=Part1.STL_id_1_copy_0 CENTER=33.768,81.6042 POLYGON=[[4.66953,81.6042],[19.2188,56.4042],[48.3172,56.4042],[62.8664,81.6042],[48.3172,106.804],[19.2188,106.804],[4.66953,81.6042]]
EXCLUDE_OBJECT_DEFINE NAME=Part1.STL_id_2_copy_0 CENTER=92.9649,30.2042 POLYGON=[[63.8664,30.2042],[78.4157,5.00417],[107.514,5.00417],[122.063,30.2042],[107.514,55.4042],[78.4157,55.4042],[63.8664,30.2042]]
EXCLUDE_OBJECT_DEFINE NAME=Part1.STL_id_3_copy_0 CENTER=92.9649,81.6042 POLYGON=[[63.8664,81.6042],[78.4157,56.4042],[107.514,56.4042],[122.063,81.6042],[107.514,106.804],[78.4157,106.804],[63.8664,81.6042]]
M73 P0 R1
; max_print_temp = 80,237
;TYPE:Custom
M220 S100 ;Reset Feedrate 
M221 S100 ;Reset Flowrate 
 
M140 S80 ;Set final bed temp  
G28 ;Home 
 
G92 E0 ;Reset Extruder 
G1 Z2.0 F3000 ;Move Z Axis up 
M104 S237 ;Set final nozzle temp  
G1 X-2.0 Y20 Z0.28 F5000.0 ;Move to start position 
M190 S80 ;Wait for bed temp to stabilize  
M109 S237 ;Wait for nozzle temp to stabilize  
G1 X-2.0 Y145.0 Z0.28 F1500.0 E15 ;Draw the first line 
G1 X-1.7 Y145.0 Z0.28 F5000.0 ;Move to side a little 
M73 P8 R0
G1 X-1.7 Y20 Z0.28 F1500.0 E30 ;Draw the second line 
G92 E0 ;Reset Extruder 
G1 E-1.0000 F1800 ;Retract a bit 
M73 P16 R0
G1 Z2.0 F3000 ;Move Z Axis up 
G1 E0.0000 F1800
G90
G21
M83 ; use relative distances for extrusion
; filament start gcode
SET_PRESSURE_ADVANCE ADVANCE=0.044; Override pressure advance value
G1 E-.8 F1800
G1 Z.2 F27000
M106 S0
;LAYER_CHANGE
;:0.2
;HEIGHT:0.2
;BEFORE_LAYER_CHANGE
;0.2
G92 E0

;_SET_FAN_SPEED_CHANGING_LAYER
SET_VELOCITY_LIMIT ACCEL=500 ACCEL_TO_DECEL=125
SET_VELOCITY_LIMIT SQUARE_CORNER_VELOCITY=9
; OBJECT_ID: 71
; printing object Part1.STL id:0 copy 0
EXCLUDE_OBJECT_START NAME=Part1.STL_id_0_copy_0
G1 X19.322 Y5.104 Z.4 F27000
G1 Z.2
M73 P17 R0
G1 E.8 F1800
;TYPE:Outer wall
;WIDTH:0.38292
G1 F9000
G1 X48.214 Y5.104 E.77598
G1 X48.282 Y5.143 E.00211
M73 P18 R0
G1 X62.728 Y30.165 E.77598
G1 X62.733 Y30.235 E.00187
M73 P19 R0
G1 X48.282 Y55.265 E.77625
G1 X48.214 Y55.304 E.00211
M73 P20 R0
G1 X19.322 Y55.304 E.77598
G1 X19.254 Y55.265 E.00211
M73 P21 R0
G1 X4.808 Y30.243 E.77598
G1 X4.808 Y30.165 E.00211
M73 P22 R0
G1 X19.254 Y5.143 E.77598
G1 X19.287 Y5.124 E.00104
G1 X19.336 Y5.025
G1 E-.56 F1800
;WIPE_START
G1 F9000
M73 P23 R0
G1 X20.287 Y5.123 E-.228
;WIPE_END
G1 E-.012 F1800
G1 X22.088 Y8.488 Z.4 F27000
G1 X33.787 Y30.347 Z.4
G1 Z.2
M73 P24 R0
G1 E.8 F1800
G1 F9000
G2 X31.886 Y33.968 I8.332 J6.684 E.11052
G2 X32.635 Y40.054 I7.851 J2.123 E.16888
G2 X36.095 Y43.826 I9.844 J-5.558 E.13866
G2 X41.224 Y45.857 I6.866 J-9.846 E.14949
G2 X44.956 Y45.54 I1.158 J-8.51 E.10141
G2 X48.618 Y42.539 I-2.222 J-6.446 E.12988
G2 X49.536 Y40.436 I-9.237 J-5.283 E.06175
; stop printing object Part1.STL id:0 copy 0
; OBJECT_ID: 128
; printing object Part1.STL id:1 copy 0
G1 E-.56 F1800
;WIPE_START
G1 F9000
G1 X49.199 Y41.377 E-.228
;WIPE_END
G1 E-.012 F1800
EXCLUDE_OBJECT_END NAME=Part1.STL_id_0_copy_0
EXCLUDE_OBJECT_START NAME=Part1.STL_id_1_copy_0
G1 X45.794 Y43.101 Z.4 F27000
G1 X19.322 Y56.504 Z.4
G1 Z.2
M73 P25 R0
G1 E.8 F1800
G1 F9000
G1 X48.214 Y56.504 E.77598
G1 X48.282 Y56.543 E.00211
G1 X62.728 Y81.565 E.77598
G1 X62.733 Y81.635 E.00187
G1 X48.282 Y106.665 E.77625
G1 X48.214 Y106.704 E.00211
G1 X19.322 Y106.704 E.77598
G1 X19.254 Y106.665 E.00211
G1 X4.808 Y81.643 E.77598
G1 X4.808 Y81.565 E.00211
G1 X19.254 Y56.543 E.77598
G1 X19.287 Y56.524 E.00104
G1 X19.336 Y56.425
G1 E-.56 F1800
;WIPE_START
G1 F9000
G1 X20.287 Y56.523 E-.228
;WIPE_END
G1 E-.012 F1800
G1 X22.088 Y59.888 Z.4 F27000
G1 X33.787 Y81.747 Z.4
M73 P26 R0
G1 Z.2
G1 E.8 F1800
M73 P27 R0
G1 F9000
G2 X31.886 Y85.368 I8.332 J6.684 E.11052
G2 X32.635 Y91.454 I7.851 J2.123 E.16888
M73 P28 R0
G2 X36.095 Y95.226 I9.844 J-5.558 E.13866
G2 X41.224 Y97.257 I6.866 J-9.846 E.14949
G2 X44.956 Y96.94 I1.158 J-8.51 E.10141
G2 X48.618 Y93.939 I-2.222 J-6.446 E.12988
M73 P29 R0
G2 X49.536 Y91.836 I-9.237 J-5.283 E.06175
; stop printing object Part1.STL id:1 copy 0
; OBJECT_ID: 173
; printing object Part1.STL id:3 copy 0
G1 E-.56 F1800
;WIPE_START
M73 P30 R0
G1 F9000
G1 X49.199 Y92.777 E-.228
;WIPE_END
M73 P31 R0
G1 E-.012 F1800
EXCLUDE_OBJECT_END NAME=Part1.STL_id_1_copy_0
EXCLUDE_OBJECT_START NAME=Part1.STL_id_3_copy_0
G1 X51.598 Y89.809 Z.4 F27000
M73 P32 R0
G1 X78.519 Y56.504 Z.4
G1 Z.2
G1 E.8 F1800
G1 F9000
G1 X107.411 Y56.504 E.77598
G1 X107.479 Y56.543 E.00211
G1 X121.925 Y81.565 E.77598
M73 P33 R0
G1 X121.93 Y81.635 E.00187
M73 P34 R0
G1 X107.479 Y106.665 E.77625
G1 X107.411 Y106.704 E.00211
G1 X78.519 Y106.704 E.77598
G1 X78.451 Y106.665 E.00211
G1 X64.005 Y81.643 E.77598
G1 X64.005 Y81.565 E.00211
G1 X78.451 Y56.543 E.77598
G1 X78.484 Y56.524 E.00104
G1 X78.533 Y56.425
G1 E-.56 F1800
;WIPE_START
G1 F9000
G1 X79.484 Y56.523 E-.228
;WIPE_END
G1 E-.012 F1800
G1 X81.285 Y59.888 Z.4 F27000
G1 X92.983 Y81.747 Z.4
G1 Z.2
G1 E.8 F1800
G1 F9000
G2 X91.083 Y85.368 I8.332 J6.684 E.11052
G2 X91.832 Y91.454 I7.851 J2.123 E.16888
G2 X95.292 Y95.226 I9.844 J-5.558 E.13866
G2 X100.42 Y97.257 I6.866 J-9.846 E.14949
G2 X104.153 Y96.94 I1.158 J-8.51 E.10141
M73 P35 R0
G2 X107.815 Y93.939 I-2.222 J-6.446 E.12988
G2 X108.732 Y91.836 I-9.237 J-5.283 E.06175
; stop printing object Part1.STL id:3 copy 0
; OBJECT_ID: 151
; printing object Part1.STL id:2 copy 0
G1 E-.56 F1800
;WIPE_START
G1 F9000
G1 X108.396 Y92.777 E-.228
;WIPE_END
G1 E-.012 F1800
EXCLUDE_OBJECT_END NAME=Part1.STL_id_3_copy_0
EXCLUDE_OBJECT_START NAME=Part1.STL_id_2_copy_0
G1 X107.165 Y89.165 Z.4 F27000
G1 X78.519 Y5.104 Z.4
M73 P36 R0
G1 Z.2
G1 E.8 F1800
G1 F9000
G1 X107.411 Y5.104 E.77598
G1 X107.479 Y5.143 E.00211
G1 X121.925 Y30.165 E.77598
G1 X121.93 Y30.235 E.00187
M73 P37 R0
G1 X107.479 Y55.265 E.77625
G1 X107.411 Y55.304 E.00211
G1 X78.519 Y55.304 E.77598
G1 X78.451 Y55.265 E.00211
M73 P38 R0
G1 X64.005 Y30.243 E.77598
G1 X64.005 Y30.165 E.00211
M73 P39 R0
G1 X78.451 Y5.143 E.77598
G1 X78.484 Y5.124 E.00104
M73 P40 R0
G1 X78.533 Y5.025
G1 E-.56 F1800
;WIPE_START
M73 P41 R0
G1 F9000
G1 X79.484 Y5.123 E-.228
;WIPE_END
M73 P42 R0
G1 E-.012 F1800
G1 X81.285 Y8.488 Z.4 F27000
M73 P43 R0
G1 X92.983 Y30.347 Z.4
G1 Z.2
G1 E.8 F1800
G1 F9000
G2 X91.083 Y33.968 I8.332 J6.684 E.11052
G2 X91.832 Y40.054 I7.851 J2.123 E.16888
G2 X95.292 Y43.826 I9.844 J-5.558 E.13866
M73 P44 R0
G2 X100.42 Y45.857 I6.866 J-9.846 E.14949
G2 X104.153 Y45.54 I1.158 J-8.51 E.10141
G2 X107.815 Y42.539 I-2.222 J-6.446 E.12988
M73 P45 R0
G2 X108.732 Y40.436 I-9.237 J-5.283 E.06175
; stop printing object Part1.STL id:2 copy 0
G1 E-.56 F1800
;WIPE_START
G1 F9000
G1 X108.396 Y41.377 E-.228
;WIPE_END
G1 E-.012 F1800
EXCLUDE_OBJECT_END NAME=Part1.STL_id_2_copy_0
;TIME_ELAPSED:36.002377

M106 S255
;LAYER_CHANGE
;:0.4
;HEIGHT:0.2
;BEFORE_LAYER_CHANGE
;0.4
G92 E0

;_SET_FAN_SPEED_CHANGING_LAYER
SET_VELOCITY_LIMIT ACCEL=5000 ACCEL_TO_DECEL=1250
SET_VELOCITY_LIMIT SQUARE_CORNER_VELOCITY=12
M140 S80 ; set bed temperature
; OBJECT_ID: 71
; printing object Part1.STL id:0 copy 0
EXCLUDE_OBJECT_START NAME=Part1.STL_id_0_copy_0
G1 X19.322 Y5.104 Z.4 F27000
G1 E.8 F1800
SET_VELOCITY_LIMIT ACCEL=2000 ACCEL_TO_DECEL=500 SQUARE_CORNER_VELOCITY=9
G1 F13724
G1 X19.988 Y5.104 E.01789
G1 X47.548 Y5.104 E.74019
G1 X48.214 Y5.104 E.01789
G1 X48.282 Y5.143 E.00211
G1 X48.615 Y5.72 E.01789
G1 X62.395 Y29.588 E.7402
G1 X62.728 Y30.165 E.01789
G1 X62.733 Y30.235 E.00188
G1 X62.401 Y30.811 E.01786
G1 X48.615 Y54.688 E.74049
G1 X48.282 Y55.265 E.01789
G1 X48.214 Y55.304 E.00211
G1 X47.548 Y55.304 E.01789
G1 X19.988 Y55.304 E.74019
G1 X19.322 Y55.304 E.01789
G1 X19.254 Y55.265 E.00211
G1 X18.921 Y54.688 E.01789
G1 X5.141 Y30.82 E.7402
G1 X4.808 Y30.243 E.01789
G1 X4.808 Y30.165 E.00209
G1 X5.141 Y29.588 E.01789
G1 X18.921 Y5.72 E.7402
M73 P46 R0
G1 X19.254 Y5.143 E.01789
G1 F11640
G1 X19.287 Y5.124 E.00102
G1 X19.336 Y5.025
G1 E-.56 F1800
;WIPE_START
G1 F11640
M73 P48 R0
G1 X20.287 Y5.123 E-.228
;WIPE_END
G1 E-.012 F1800
SET_VELOCITY_LIMIT ACCEL=5000 ACCEL_TO_DECEL=1250 SQUARE_CORNER_VELOCITY=12
G1 X22.722 Y8.062 Z.6 F27000
G1 X49.536 Y40.436 Z.6
M73 P49 R0
G1 Z.4
G1 E.8 F1800
SET_VELOCITY_LIMIT ACCEL=2000 ACCEL_TO_DECEL=500 SQUARE_CORNER_VELOCITY=9
M73 P50 R0
G1 F13724
G1 X49.195 Y41.386 E.02711
M73 P51 R0
G1 X48.865 Y42.097 E.02105
G1 F12720
M73 P52 R0
G1 X48.618 Y42.539 E.0136
G1 X48.21 Y43.151 E.01975
G1 X47.76 Y43.701 E.01909
G1 F10860
M73 P53 R0
G1 X47.322 Y44.134 E.01654
G1 X46.798 Y44.579 E.01846
G1 F13320
M73 P54 R0
G1 X46.227 Y44.959 E.01842
G1 X45.613 Y45.28 E.01861
G1 F13200
G1 X44.956 Y45.54 E.01898
G1 X44.259 Y45.737 E.01945
M73 P55 R0
G1 X43.635 Y45.855 E.01706
G1 F13680
G1 X42.863 Y45.928 E.02083
G1 X42.057 Y45.929 E.02165
G1 F13560
G1 X41.224 Y45.857 E.02246
G1 X40.37 Y45.709 E.02328
G1 X39.507 Y45.484 E.02395
G1 F13440
G1 X38.644 Y45.186 E.02452
G1 X37.796 Y44.817 E.02484
G1 X36.973 Y44.383 E.02499
G1 F12960
G1 X36.095 Y43.826 E.02793
G1 X35.364 Y43.278 E.02454
G1 X34.689 Y42.688 E.02408
G1 X34.075 Y42.064 E.02351
M73 P56 R0
G1 X33.527 Y41.414 E.02283
G1 X33.046 Y40.742 E.0222
G1 F12840
G1 X32.635 Y40.054 E.02152
G1 X32.292 Y39.354 E.02094
G1 X32.108 Y38.885 E.01353
G1 F13680
G1 X31.898 Y38.264 E.01761
G1 F13724
G1 X31.731 Y37.557 E.01951
G1 X31.629 Y36.846 E.01929
G1 X31.593 Y36.132 E.0192
G1 X31.623 Y35.415 E.01927
G1 X31.72 Y34.693 E.01957
G1 X31.886 Y33.968 E.01998
G1 X32.122 Y33.238 E.02061
G1 X32.433 Y32.502 E.02146
G1 X32.821 Y31.762 E.02244
G1 X33.291 Y31.016 E.02368
G1 X33.787 Y30.347 E.02237
; stop printing object Part1.STL id:0 copy 0
; OBJECT_ID: 128
; printing object Part1.STL id:1 copy 0
G1 E-.56 F1800
;WIPE_START
G1 F14040
G1 X33.291 Y31.016 E-.18988
G1 X33.202 Y31.157 E-.03812
;WIPE_END
M73 P57 R0
G1 E-.012 F1800
EXCLUDE_OBJECT_END NAME=Part1.STL_id_0_copy_0
EXCLUDE_OBJECT_START NAME=Part1.STL_id_1_copy_0
SET_VELOCITY_LIMIT ACCEL=5000 ACCEL_TO_DECEL=1250 SQUARE_CORNER_VELOCITY=12
G1 X31.369 Y34.505 Z.6 F27000
G1 X19.322 Y56.504 Z.6
G1 Z.4
G1 E.8 F1800
SET_VELOCITY_LIMIT ACCEL=2000 ACCEL_TO_DECEL=500 SQUARE_CORNER_VELOCITY=9
G1 F13724
G1 X19.988 Y56.504 E.01789
M73 P58 R0
G1 X47.548 Y56.504 E.74019
G1 X48.214 Y56.504 E.01789
G1 X48.282 Y56.543 E.00211
G1 X48.615 Y57.12 E.01789
G1 X62.395 Y80.988 E.7402
G1 X62.728 Y81.565 E.01789
G1 X62.733 Y81.635 E.00188
G1 X62.401 Y82.211 E.01786
M73 P59 R0
G1 X48.615 Y106.088 E.74049
G1 X48.282 Y106.665 E.01789
G1 X48.214 Y106.704 E.00211
G1 X47.548 Y106.704 E.01789
G1 X19.988 Y106.704 E.74019
G1 X19.322 Y106.704 E.01789
G1 X19.254 Y106.665 E.00211
G1 X18.921 Y106.088 E.01789
G1 X5.141 Y82.22 E.7402
M73 P60 R0
G1 X4.808 Y81.643 E.01789
G1 X4.808 Y81.565 E.00209
G1 X5.141 Y80.988 E.01789
G1 X18.921 Y57.12 E.7402
G1 X19.254 Y56.543 E.01789
G1 F11640
G1 X19.287 Y56.524 E.00102
G1 X19.336 Y56.425
G1 E-.56 F1800
;WIPE_START
G1 F11640
G1 X20.287 Y56.523 E-.228
;WIPE_END
G1 E-.012 F1800
SET_VELOCITY_LIMIT ACCEL=5000 ACCEL_TO_DECEL=1250 SQUARE_CORNER_VELOCITY=12
G1 X22.722 Y59.462 Z.6 F27000
G1 X49.536 Y91.836 Z.6
G1 Z.4
G1 E.8 F1800
SET_VELOCITY_LIMIT ACCEL=2000 ACCEL_TO_DECEL=500 SQUARE_CORNER_VELOCITY=9
G1 F13724
G1 X49.195 Y92.786 E.02711
G1 X48.865 Y93.497 E.02105
G1 F12720
G1 X48.618 Y93.939 E.0136
G1 X48.21 Y94.551 E.01975
G1 X47.76 Y95.101 E.01909
G1 F10860
G1 X47.322 Y95.534 E.01654
G1 X46.798 Y95.979 E.01846
G1 F13320
G1 X46.227 Y96.359 E.01842
G1 X45.613 Y96.68 E.01861
G1 F13200
G1 X44.956 Y96.94 E.01898
G1 X44.259 Y97.137 E.01945
G1 X43.635 Y97.255 E.01706
G1 F13680
G1 X42.863 Y97.328 E.02083
G1 X42.057 Y97.329 E.02165
M73 P61 R0
G1 F13560
G1 X41.224 Y97.257 E.02246
G1 X40.37 Y97.109 E.02328
G1 X39.507 Y96.884 E.02395
G1 F13440
G1 X38.644 Y96.586 E.02452
G1 X37.796 Y96.217 E.02484
G1 X36.973 Y95.783 E.02499
G1 F12960
G1 X36.095 Y95.226 E.02793
G1 X35.364 Y94.678 E.02454
G1 X34.689 Y94.088 E.02408
G1 X34.075 Y93.464 E.02351
G1 X33.527 Y92.814 E.02283
G1 X33.046 Y92.142 E.0222
G1 F12840
G1 X32.635 Y91.454 E.02152
G1 X32.292 Y90.754 E.02094
G1 X32.108 Y90.285 E.01353
G1 F13680
G1 X31.898 Y89.664 E.01761
G1 F13724
G1 X31.731 Y88.957 E.01951
G1 X31.629 Y88.246 E.01929
G1 X31.593 Y87.532 E.0192
M73 P62 R0
G1 X31.623 Y86.815 E.01927
G1 X31.72 Y86.093 E.01957
G1 X31.886 Y85.368 E.01998
G1 X32.122 Y84.638 E.02061
G1 X32.433 Y83.902 E.02146
G1 X32.821 Y83.162 E.02244
G1 X33.291 Y82.416 E.02368
G1 X33.787 Y81.747 E.02237
; stop printing object Part1.STL id:1 copy 0
; OBJECT_ID: 173
; printing object Part1.STL id:3 copy 0
G1 E-.56 F1800
;WIPE_START
G1 F14040
G1 X33.291 Y82.416 E-.18988
G1 X33.202 Y82.557 E-.03812
;WIPE_END
M73 P63 R0
G1 E-.012 F1800
EXCLUDE_OBJECT_END NAME=Part1.STL_id_1_copy_0
EXCLUDE_OBJECT_START NAME=Part1.STL_id_3_copy_0
SET_VELOCITY_LIMIT ACCEL=5000 ACCEL_TO_DECEL=1250 SQUARE_CORNER_VELOCITY=12
G1 X36.51 Y80.655 Z.6 F27000
G1 X78.519 Y56.504 Z.6
G1 Z.4
G1 E.8 F1800
SET_VELOCITY_LIMIT ACCEL=2000 ACCEL_TO_DECEL=500 SQUARE_CORNER_VELOCITY=9
G1 F13724
G1 X79.185 Y56.504 E.01789
G1 X106.745 Y56.504 E.74019
M73 P64 R0
G1 X107.411 Y56.504 E.01789
G1 X107.479 Y56.543 E.00211
G1 X107.812 Y57.12 E.01789
G1 X121.592 Y80.988 E.7402
G1 X121.925 Y81.565 E.01789
G1 X121.93 Y81.635 E.00188
G1 X121.597 Y82.211 E.01787
G1 X107.812 Y106.088 E.74048
M73 P65 R0
G1 X107.479 Y106.665 E.01789
G1 X107.411 Y106.704 E.00211
G1 X106.745 Y106.704 E.01789
G1 X79.185 Y106.704 E.74019
G1 X78.519 Y106.704 E.01789
G1 X78.451 Y106.665 E.00211
G1 X78.118 Y106.088 E.01789
G1 X64.337 Y82.22 E.74022
G1 X64.005 Y81.643 E.01788
G1 X64.005 Y81.565 E.00209
G1 X64.337 Y80.988 E.01788
G1 X78.118 Y57.12 E.74022
G1 X78.451 Y56.543 E.01789
G1 F11640
M73 P66 R0
G1 X78.484 Y56.524 E.00102
G1 X78.533 Y56.425
G1 E-.56 F1800
;WIPE_START
G1 F11640
G1 X79.484 Y56.523 E-.228
;WIPE_END
G1 E-.012 F1800
SET_VELOCITY_LIMIT ACCEL=5000 ACCEL_TO_DECEL=1250 SQUARE_CORNER_VELOCITY=12
G1 X81.918 Y59.462 Z.6 F27000
G1 X108.732 Y91.836 Z.6
G1 Z.4
G1 E.8 F1800
SET_VELOCITY_LIMIT ACCEL=2000 ACCEL_TO_DECEL=500 SQUARE_CORNER_VELOCITY=9
G1 F13724
G1 X108.392 Y92.786 E.0271
G1 X108.062 Y93.497 E.02105
G1 F12720
G1 X107.815 Y93.939 E.0136
G1 X107.407 Y94.551 E.01975
G1 X106.957 Y95.101 E.01909
G1 F10860
G1 X106.519 Y95.534 E.01654
G1 X105.995 Y95.979 E.01846
G1 F13320
G1 X105.424 Y96.359 E.01842
G1 X104.81 Y96.68 E.01861
G1 F13200
G1 X104.153 Y96.94 E.01898
G1 X103.456 Y97.137 E.01945
G1 X102.832 Y97.255 E.01706
G1 F13680
G1 X102.06 Y97.328 E.02083
G1 X101.254 Y97.329 E.02165
G1 F13560
